(Generated by PartKam Version 0.05)

G21 G90 G40

(cutout)
G0 Z5
T0 M6
G17
M3
G0 X-0.4268 Y-3.1192
G1 Z-0.25 F150
G1 X19.444 Y-3.119 F200
G3 X20.944 Y-1.6189999999999998 I0 J1.5
G1 X20.944 Y17.381
G3 X19.444 Y18.881 I-1.5 J0
G1 X-0.42700000000000005 Y18.881
G3 X-1.927 Y17.381 I0 J-1.5
G1 X-1.927 Y-1.6189999999999998
G3 X-0.42700000000000005 Y-3.119 I1.5 J0
G1 Z-0.5 F150
G1 X19.444 Y-3.119 F200
G3 X20.944 Y-1.6189999999999998 I0 J1.5
G1 X20.944 Y17.381
G3 X19.444 Y18.881 I-1.5 J0
G1 X-0.42700000000000005 Y18.881
G3 X-1.927 Y17.381 I0 J-1.5
G1 X-1.927 Y-1.6189999999999998
G3 X-0.42700000000000005 Y-3.119 I1.5 J0
G1 Z-0.75 F150
G1 X19.444 Y-3.119 F200
G3 X20.944 Y-1.6189999999999998 I0 J1.5
G1 X20.944 Y17.381
G3 X19.444 Y18.881 I-1.5 J0
G1 X-0.42700000000000005 Y18.881
G3 X-1.927 Y17.381 I0 J-1.5
G1 X-1.927 Y-1.6189999999999998
G3 X-0.42700000000000005 Y-3.119 I1.5 J0
G1 Z-1 F150
G1 X19.444 Y-3.119 F200
G3 X20.944 Y-1.6189999999999998 I0 J1.5
G1 X20.944 Y17.381
G3 X19.444 Y18.881 I-1.5 J0
G1 X-0.42700000000000005 Y18.881
G3 X-1.927 Y17.381 I0 J-1.5
G1 X-1.927 Y-1.6189999999999998
G3 X-0.42700000000000005 Y-3.119 I1.5 J0
G1 Z-1.25 F150
G1 X19.444 Y-3.119 F200
G3 X20.944 Y-1.6189999999999998 I0 J1.5
G1 X20.944 Y17.381
G3 X19.444 Y18.881 I-1.5 J0
G1 X-0.42700000000000005 Y18.881
G3 X-1.927 Y17.381 I0 J-1.5
G1 X-1.927 Y-1.6189999999999998
G3 X-0.42700000000000005 Y-3.119 I1.5 J0
G1 Z-1.5 F150
G1 X19.444 Y-3.119 F200
G3 X20.944 Y-1.6189999999999998 I0 J1.5
G1 X20.944 Y17.381
G3 X19.444 Y18.881 I-1.5 J0
G1 X-0.42700000000000005 Y18.881
G3 X-1.927 Y17.381 I0 J-1.5
G1 X-1.927 Y-1.6189999999999998
G3 X-0.42700000000000005 Y-3.119 I1.5 J0
G0 Z5
M5
M30
