(Generated by PartKam Version 0.05)

G21 G90 G40

(drill 1)
G0 Z2
T0 M6
G17
M3
G0 X4.563959390862944 Y8.130710659898478
G1 Z-1.5 F150
G1 Z0 F150
G0 Z2
G0 X4.563959390862944 Y8.130710659898478
G1 Z-1.5 F150
G1 Z0 F150
G0 Z2
G0 X4.563959390862944 Y5.630456852791879
G1 Z-1.5 F150
G1 Z0 F150
G0 Z2
G0 X14.724111675126904 Y3.0906091370558375
G1 Z-1.5 F150
G1 Z0 F150
G0 Z2
G0 X4.563959390862944 Y3.0906091370558375
G1 Z-1.5 F150
G1 Z0 F150
G0 Z2
G0 X14.144162436548223 Y5.630456852791879
G1 Z-1.5 F150
G1 Z0 F150
G0 Z2
G0 X14.144162436548223 Y12.130710659898478
G1 Z-1.5 F150
G1 Z0 F150
G0 Z2
G0 X9.644162436548223 Y5.630456852791879
G1 Z-1.5 F150
G1 Z0 F150
G0 Z2
G0 X9.644162436548223 Y12.130710659898478
G1 Z-1.5 F150
G1 Z0 F150
G0 Z2
G0 X4.563959390862944 Y13.250507614213198
G1 Z-1.5 F150
G1 Z0 F150
G0 Z2
G0 X7.104060913705584 Y13.250507614213198
G1 Z-1.5 F150
G1 Z0 F150
G0 Z2
M5
M30
