(Generated by PartKam Version 0.05)

G21 G90 G40

(traces)
G0 Z5
T0 M6
G17
M3
G0 X5.1071 Y9.1581
G1 Z-0.25 F150
G1 X5.107 Y12.161999999999999 F125
G3 X5.2829999999999995 Y12.269000000000002 I-0.5539999999999999 J1.11
G3 X5.548 Y12.532 I-0.7290000000000001 J1.001
G3 X5.725 Y12.873000000000001 I-0.973 J0.722
G3 X5.786 Y13.25 I-1.1360000000000001 J0.377
G3 X5.6930000000000005 Y13.715 I-1.205 J0
G3 X5.425 Y14.115 I-1.149 J-0.481
G3 X5.0249999999999995 Y14.383 I-0.881 J-0.881
G3 X4.5600000000000005 Y14.475999999999999 I-0.466 J-1.111
G3 X4.095 Y14.382 I0 J-1.197
G3 X3.6980000000000004 Y14.114 I0.477 J-1.132
G3 X3.4339999999999997 Y13.716 I0.882 J-0.871
G3 X3.342 Y13.25 I1.129 J-0.466
G3 X3.404 Y12.87 I1.192 J0
G3 X3.584 Y12.529 I1.1440000000000001 J0.38399999999999995
G3 X3.852 Y12.267 I0.988 J0.744
G3 X4.03 Y12.161 I0.727 J1.0150000000000001
G1 X4.03 Y9.158
G1 X3.969 Y9.158
G1 X3.7569999999999997 Y9.158
G3 X3.527 Y8.928 I0 J-0.22999999999999998
G1 X3.527 Y8.725000000000001
G1 X3.527 Y7.526000000000001
G1 X3.527 Y7.332
G3 X3.7569999999999997 Y7.102 I0.22999999999999998 J0
G1 X3.969 Y7.102
G1 X5.159000000000001 Y7.102
G1 X5.371 Y7.102
G3 X5.601000000000001 Y7.332 I0 J0.22999999999999998
G1 X5.601000000000001 Y7.526000000000001
G1 X5.601000000000001 Y8.725000000000001
G1 X5.601000000000001 Y8.928
G3 X5.371 Y9.158 I-0.22999999999999998 J0
G1 X5.159000000000001 Y9.158
G1 X5.107 Y9.158
G0 Z5
G0 X7.8897 Y12.3242
G1 Z-0.25 F150
G1 X8.468 Y12.071000000000002 F125
G3 X8.554 Y11.687000000000001 I1.1949999999999998 J0.06799999999999999
G3 X8.807 Y11.301000000000002 I1.1139999999999999 J0.454
G3 X9.190000000000001 Y11.039000000000001 I0.846 J0.8240000000000001
G3 X9.64 Y10.947 I0.44999999999999996 J1.056
G3 X10.09 Y11.037999999999998 I0 J1.156
G3 X10.476 Y11.299999999999999 I-0.46699999999999997 J1.103
G3 X10.732 Y11.687000000000001 I-0.8599999999999999 J0.849
G3 X10.822000000000001 Y12.138 I-1.091 J0.451
G3 X10.732 Y12.588 I-1.1640000000000001 J0
G3 X10.474 Y12.969999999999999 I-1.083 J-0.454
G3 X10.091000000000001 Y13.223 I-0.833 J-0.843
G3 X9.64 Y13.312 I-0.451 J-1.1
G3 X9.396 Y13.286999999999999 I0 J-1.18
G3 X9.165 Y13.212 I0.23800000000000002 J-1.127
G3 X8.962 Y13.095 I0.474 J-1.062
G3 X8.905 Y13.052 I0.698 J-0.9760000000000001
G1 X8.325 Y13.301
G3 X8.234 Y13.716 I-1.22 J-0.051000000000000004
G3 X7.970000000000001 Y14.114 I-1.145 J-0.47300000000000003
G3 X7.5729999999999995 Y14.382 I-0.8740000000000001 J-0.863
G3 X7.108 Y14.475999999999999 I-0.46499999999999997 J-1.103
G3 X6.643 Y14.383 I0 J-1.205
G3 X6.244 Y14.115 I0.481 J-1.149
G3 X5.9750000000000005 Y13.715 I0.881 J-0.881
G3 X5.882 Y13.25 I1.111 J-0.466
G3 X5.976 Y12.785 I1.197 J0
G3 X6.245000000000001 Y12.387999999999998 I1.132 J0.477
G3 X6.643 Y12.123999999999999 I0.871 J0.882
G3 X7.108 Y12.032 I0.466 J1.129
G3 X7.367 Y12.061 I0 J1.183
G3 X7.614 Y12.145 I-0.26 J1.158
G3 X7.826 Y12.273 I-0.52 J1.103
G3 X7.890000000000001 Y12.324 I-0.7729999999999999 J1.03
G0 Z5
G0 X5.1071 Y4.1303
G1 Z-0.25 F150
G1 X5.107 Y4.757 F125
G3 X5.220000000000001 Y4.837 I-0.5439999999999999 J0.892
G3 X5.417999999999999 Y5.051 I-0.631 J0.781
G3 X5.547 Y5.321 I-0.817 J0.5589999999999999
G3 X5.5920000000000005 Y5.621 I-0.982 J0.3
G3 X5.514 Y6.014 I-1.028 J0
G3 X5.29 Y6.353 I-0.98 J-0.40599999999999997
G3 X4.953 Y6.582 I-0.748 J-0.737
G3 X4.5600000000000005 Y6.662 I-0.393 J-0.9229999999999999
G3 X4.167 Y6.582 I0 J-0.9950000000000001
G3 X3.8329999999999997 Y6.351 I0.40700000000000003 J-0.95
G3 X3.613 Y6.014 I0.757 J-0.735
G3 X3.5360000000000005 Y5.621 I0.968 J-0.39399999999999996
G3 X3.5820000000000003 Y5.319000000000001 I1.0090000000000001 J0
G3 X3.7159999999999997 Y5.047000000000001 I0.943 J0.29600000000000004
G3 X3.917 Y4.835 I0.829 J0.5820000000000001
G3 X4.03 Y4.756 I0.6579999999999999 J0.831
G1 X4.03 Y4.132
G3 X3.867 Y4.031000000000001 I0.548 J-1.07
G3 X3.614 Y3.779 I0.7040000000000001 J-0.96
G3 X3.444 Y3.452 I0.935 J-0.692
G3 X3.386 Y3.09 I1.097 J-0.363
G3 X3.4749999999999996 Y2.6390000000000002 I1.18 J0
G3 X3.729 Y2.259 I1.08 J0.446
G3 X4.109 Y2.005 I0.8260000000000001 J0.8260000000000001
G3 X4.5600000000000005 Y1.916 I0.44999999999999996 J1.091
G3 X5.011 Y2.005 I0 J1.189
G3 X5.394 Y2.258 I-0.44999999999999996 J1.097
G3 X5.652 Y2.64 I-0.8250000000000001 J0.836
G3 X5.742000000000001 Y3.09 I-1.073 J0.44999999999999996
G3 X5.6850000000000005 Y3.4499999999999997 I-1.162 J0
G3 X5.518 Y3.776 I-1.1119999999999999 J-0.363
G3 X5.268000000000001 Y4.029 I-0.963 J-0.702
G3 X5.107 Y4.13 I-0.7140000000000001 J-0.9560000000000001
G0 Z5
G0 X13.8579 Y4.4947
G1 Z-0.25 F150
G1 X13.969000000000001 Y3.99 F125
G3 X13.873999999999999 Y3.9029999999999996 I0.785 J-0.949
G3 X13.697 Y3.672 I0.859 J-0.842
G3 X13.578 Y3.39 I1.0030000000000001 J-0.59
G3 X13.536999999999999 Y3.09 I1.091 J-0.3
G3 X13.629 Y2.64 I1.148 J0
G3 X13.891 Y2.257 I1.087 J0.463
G3 X14.277 Y2.004 I0.839 J0.861
G3 X14.728000000000002 Y1.916 I0.45199999999999996 J1.109
G3 X15.179 Y2.005 I0 J1.18
G3 X15.559000000000001 Y2.259 I-0.446 J1.08
G3 X15.812999999999999 Y2.6390000000000002 I-0.8260000000000001 J0.8260000000000001
G3 X15.902000000000001 Y3.09 I-1.091 J0.44999999999999996
G3 X15.824 Y3.514 I-1.187 J0
G3 X15.599 Y3.8810000000000002 I-1.099 J-0.421
G3 X15.259 Y4.142 I-0.872 J-0.786
G3 X15.015 Y4.2330000000000005 I-0.528 J-1.038
G1 X14.899000000000001 Y4.7299999999999995
G3 X14.992 Y4.8149999999999995 I-0.776 J0.943
G3 X15.169999999999998 Y5.047000000000001 I-0.842 J0.8300000000000001
G3 X15.289 Y5.328 I-0.9950000000000001 J0.584
G3 X15.328999999999999 Y5.629999999999999 I-1.11 J0.302
G3 X15.238 Y6.08 I-1.156 J0
G3 X14.976 Y6.465999999999999 I-1.103 J-0.46699999999999997
G3 X14.589 Y6.722 I-0.849 J-0.8599999999999999
G3 X14.138 Y6.812 I-0.451 J-1.091
G3 X13.688 Y6.722 I0 J-1.1640000000000001
G3 X13.306000000000001 Y6.4639999999999995 I0.454 J-1.083
G3 X13.052999999999999 Y6.0809999999999995 I0.843 J-0.833
G3 X12.964 Y5.629999999999999 I1.1 J-0.451
G3 X13.044 Y5.205 I1.168 J0
G3 X13.273 Y4.839 I1.081 J0.42200000000000004
G3 X13.614999999999998 Y4.584 I0.863 J0.7979999999999999
G3 X13.857999999999999 Y4.495 I0.5269999999999999 J1.066
G0 Z5
G0 X14.977 Y11.299
G1 Z-0.25 F150
G3 X15.238 Y11.687000000000001 I-0.859 J0.859 F125
G3 X15.328999999999999 Y12.138 I-1.073 J0.451
G3 X15.237 Y12.588 I-1.148 J0
G3 X14.975000000000001 Y12.971 I-1.087 J-0.463
G3 X14.589 Y13.224 I-0.839 J-0.861
G3 X14.138 Y13.312 I-0.45199999999999996 J-1.109
G3 X13.687000000000001 Y13.223 I0 J-1.18
G3 X13.307 Y12.969 I0.446 J-1.08
G3 X13.052999999999999 Y12.588999999999999 I0.8260000000000001 J-0.8260000000000001
G3 X12.964 Y12.138 I1.091 J-0.44999999999999996
G3 X13.052 Y11.687000000000001 I1.197 J0
G3 X13.305 Y11.301000000000002 I1.1139999999999999 J0.454
G3 X13.688 Y11.039000000000001 I0.846 J0.8240000000000001
G3 X14.138 Y10.947 I0.44999999999999996 J1.056
G3 X14.589 Y11.037999999999998 I0 J1.1640000000000001
G3 X14.977 Y11.299 I-0.47100000000000003 J1.12
G0 Z5
G0 X10.732 Y6.0804
G1 Z-0.25 F150
G3 X10.475000000000001 Y6.465 I-1.1 J-0.458 F125
G3 X10.09 Y6.722 I-0.842 J-0.842
G3 X9.64 Y6.812 I-0.451 J-1.082
G3 X9.190000000000001 Y6.722 I0 J-1.1640000000000001
G3 X8.808 Y6.4639999999999995 I0.454 J-1.083
G3 X8.555 Y6.0809999999999995 I0.843 J-0.833
G3 X8.466000000000001 Y5.629999999999999 I1.1 J-0.451
G3 X8.555 Y5.179 I1.18 J0
G3 X8.809000000000001 Y4.7989999999999995 I1.08 J0.446
G3 X9.189 Y4.545 I0.8260000000000001 J0.8260000000000001
G3 X9.64 Y4.4559999999999995 I0.44999999999999996 J1.091
G3 X10.091000000000001 Y4.545 I0 J1.189
G3 X10.474 Y4.798 I-0.44999999999999996 J1.097
G3 X10.732 Y5.18 I-0.8250000000000001 J0.836
G3 X10.822000000000001 Y5.629999999999999 I-1.073 J0.44999999999999996
G3 X10.732 Y6.08 I-1.172 J0

(star)
G0 Z5
T1 M6
G0 X11.9317 Y11.0457
G1 Z-0.15 F150
G1 X12.494 Y9.77 F150
G1 X13.879999999999999 Y9.921
G1 X13.057 Y8.796000000000001
G1 X13.879999999999999 Y7.671
G1 X12.494 Y7.821
G1 X11.932 Y6.545999999999999
G1 X11.369 Y7.821
G1 X9.983 Y7.671
G1 X10.807 Y8.796000000000001
G1 X9.983 Y9.921
G1 X11.369 Y9.77
G1 X11.932 Y11.046
G0 Z5
M5
M30
