(Modified by metric-gcode-truncator. Intended for use in absolute mode. Incremental mode may cause errors.)(Generated by PartKam Version 0.05)

G21 G90 G40

(traces)
G0 Z5
T0 M6
G17
M3
G0 X5.1071 Y9.1581
G1 Z-0.25 F150
G1 X5.107 Y12.1619 F125
G3 X5.2829 Y12.2690 I-0.5539 J1.11
G3 X5.548 Y12.532 I-0.7290 J1.001
G3 X5.725 Y12.8730 I-0.973 J0.722
G3 X5.786 Y13.25 I-1.1360 J0.377
G3 X5.6930 Y13.715 I-1.205 J0
G3 X5.425 Y14.115 I-1.149 J-0.481
G3 X5.0249 Y14.383 I-0.881 J-0.881
G3 X4.5600 Y14.4759 I-0.466 J-1.111
G3 X4.095 Y14.382 I0 J-1.197
G3 X3.6980 Y14.114 I0.477 J-1.132
G3 X3.4339 Y13.716 I0.882 J-0.871
G3 X3.342 Y13.25 I1.129 J-0.466
G3 X3.404 Y12.87 I1.192 J0
G3 X3.584 Y12.529 I1.1440 J0.3839
G3 X3.852 Y12.267 I0.988 J0.744
G3 X4.03 Y12.161 I0.727 J1.0150
G1 X4.03 Y9.158
G1 X3.969 Y9.158
G1 X3.7569 Y9.158
G3 X3.527 Y8.928 I0 J-0.2299
G1 X3.527 Y8.7250
G1 X3.527 Y7.5260
G1 X3.527 Y7.332
G3 X3.7569 Y7.102 I0.2299 J0
G1 X3.969 Y7.102
G1 X5.1590 Y7.102
G1 X5.371 Y7.102
G3 X5.6010 Y7.332 I0 J0.2299
G1 X5.6010 Y7.5260
G1 X5.6010 Y8.7250
G1 X5.6010 Y8.928
G3 X5.371 Y9.158 I-0.2299 J0
G1 X5.1590 Y9.158
G1 X5.107 Y9.158
G0 Z5
G0 X7.8897 Y12.3242
G1 Z-0.25 F150
G1 X8.468 Y12.0710 F125
G3 X8.554 Y11.6870 I1.1949 J0.0679
G3 X8.807 Y11.3010 I1.1139 J0.454
G3 X9.1900 Y11.0390 I0.846 J0.8240
G3 X9.64 Y10.947 I0.4499 J1.056
G3 X10.09 Y11.0379 I0 J1.156
G3 X10.476 Y11.2999 I-0.4669 J1.103
G3 X10.732 Y11.6870 I-0.8599 J0.849
G3 X10.8220 Y12.138 I-1.091 J0.451
G3 X10.732 Y12.588 I-1.1640 J0
G3 X10.474 Y12.9699 I-1.083 J-0.454
G3 X10.0910 Y13.223 I-0.833 J-0.843
G3 X9.64 Y13.312 I-0.451 J-1.1
G3 X9.396 Y13.2869 I0 J-1.18
G3 X9.165 Y13.212 I0.2380 J-1.127
G3 X8.962 Y13.095 I0.474 J-1.062
G3 X8.905 Y13.052 I0.698 J-0.9760
G1 X8.325 Y13.301
G3 X8.234 Y13.716 I-1.22 J-0.0510
G3 X7.9700 Y14.114 I-1.145 J-0.4730
G3 X7.5729 Y14.382 I-0.8740 J-0.863
G3 X7.108 Y14.4759 I-0.4649 J-1.103
G3 X6.643 Y14.383 I0 J-1.205
G3 X6.244 Y14.115 I0.481 J-1.149
G3 X5.9750 Y13.715 I0.881 J-0.881
G3 X5.882 Y13.25 I1.111 J-0.466
G3 X5.976 Y12.785 I1.197 J0
G3 X6.2450 Y12.3879 I1.132 J0.477
G3 X6.643 Y12.1239 I0.871 J0.882
G3 X7.108 Y12.032 I0.466 J1.129
G3 X7.367 Y12.061 I0 J1.183
G3 X7.614 Y12.145 I-0.26 J1.158
G3 X7.826 Y12.273 I-0.52 J1.103
G3 X7.8900 Y12.324 I-0.7729 J1.03
G0 Z5
G0 X5.1071 Y4.1303
G1 Z-0.25 F150
G1 X5.107 Y4.757 F125
G3 X5.2200 Y4.837 I-0.5439 J0.892
G3 X5.4179 Y5.051 I-0.631 J0.781
G3 X5.547 Y5.321 I-0.817 J0.5589
G3 X5.5920 Y5.621 I-0.982 J0.3
G3 X5.514 Y6.014 I-1.028 J0
G3 X5.29 Y6.353 I-0.98 J-0.4059
G3 X4.953 Y6.582 I-0.748 J-0.737
G3 X4.5600 Y6.662 I-0.393 J-0.9229
G3 X4.167 Y6.582 I0 J-0.9950
G3 X3.8329 Y6.351 I0.4070 J-0.95
G3 X3.613 Y6.014 I0.757 J-0.735
G3 X3.5360 Y5.621 I0.968 J-0.3939
G3 X3.5820 Y5.3190 I1.0090 J0
G3 X3.7159 Y5.0470 I0.943 J0.2960
G3 X3.917 Y4.835 I0.829 J0.5820
G3 X4.03 Y4.756 I0.6579 J0.831
G1 X4.03 Y4.132
G3 X3.867 Y4.0310 I0.548 J-1.07
G3 X3.614 Y3.779 I0.7040 J-0.96
G3 X3.444 Y3.452 I0.935 J-0.692
G3 X3.386 Y3.09 I1.097 J-0.363
G3 X3.4749 Y2.6390 I1.18 J0
G3 X3.729 Y2.259 I1.08 J0.446
G3 X4.109 Y2.005 I0.8260 J0.8260
G3 X4.5600 Y1.916 I0.4499 J1.091
G3 X5.011 Y2.005 I0 J1.189
G3 X5.394 Y2.258 I-0.4499 J1.097
G3 X5.652 Y2.64 I-0.8250 J0.836
G3 X5.7420 Y3.09 I-1.073 J0.4499
G3 X5.6850 Y3.4499 I-1.162 J0
G3 X5.518 Y3.776 I-1.1119 J-0.363
G3 X5.2680 Y4.029 I-0.963 J-0.702
G3 X5.107 Y4.13 I-0.7140 J-0.9560
G0 Z5
G0 X13.8579 Y4.4947
G1 Z-0.25 F150
G1 X13.9690 Y3.99 F125
G3 X13.8739 Y3.9029 I0.785 J-0.949
G3 X13.697 Y3.672 I0.859 J-0.842
G3 X13.578 Y3.39 I1.0030 J-0.59
G3 X13.5369 Y3.09 I1.091 J-0.3
G3 X13.629 Y2.64 I1.148 J0
G3 X13.891 Y2.257 I1.087 J0.463
G3 X14.277 Y2.004 I0.839 J0.861
G3 X14.7280 Y1.916 I0.4519 J1.109
G3 X15.179 Y2.005 I0 J1.18
G3 X15.5590 Y2.259 I-0.446 J1.08
G3 X15.8129 Y2.6390 I-0.8260 J0.8260
G3 X15.9020 Y3.09 I-1.091 J0.4499
G3 X15.824 Y3.514 I-1.187 J0
G3 X15.599 Y3.8810 I-1.099 J-0.421
G3 X15.259 Y4.142 I-0.872 J-0.786
G3 X15.015 Y4.2330 I-0.528 J-1.038
G1 X14.8990 Y4.7299
G3 X14.992 Y4.8149 I-0.776 J0.943
G3 X15.1699 Y5.0470 I-0.842 J0.8300
G3 X15.289 Y5.328 I-0.9950 J0.584
G3 X15.3289 Y5.6299 I-1.11 J0.302
G3 X15.238 Y6.08 I-1.156 J0
G3 X14.976 Y6.4659 I-1.103 J-0.4669
G3 X14.589 Y6.722 I-0.849 J-0.8599
G3 X14.138 Y6.812 I-0.451 J-1.091
G3 X13.688 Y6.722 I0 J-1.1640
G3 X13.3060 Y6.4639 I0.454 J-1.083
G3 X13.0529 Y6.0809 I0.843 J-0.833
G3 X12.964 Y5.6299 I1.1 J-0.451
G3 X13.044 Y5.205 I1.168 J0
G3 X13.273 Y4.839 I1.081 J0.4220
G3 X13.6149 Y4.584 I0.863 J0.7979
G3 X13.8579 Y4.495 I0.5269 J1.066
G0 Z5
G0 X14.977 Y11.299
G1 Z-0.25 F150
G3 X15.238 Y11.6870 I-0.859 J0.859 F125
G3 X15.3289 Y12.138 I-1.073 J0.451
G3 X15.237 Y12.588 I-1.148 J0
G3 X14.9750 Y12.971 I-1.087 J-0.463
G3 X14.589 Y13.224 I-0.839 J-0.861
G3 X14.138 Y13.312 I-0.4519 J-1.109
G3 X13.6870 Y13.223 I0 J-1.18
G3 X13.307 Y12.969 I0.446 J-1.08
G3 X13.0529 Y12.5889 I0.8260 J-0.8260
G3 X12.964 Y12.138 I1.091 J-0.4499
G3 X13.052 Y11.6870 I1.197 J0
G3 X13.305 Y11.3010 I1.1139 J0.454
G3 X13.688 Y11.0390 I0.846 J0.8240
G3 X14.138 Y10.947 I0.4499 J1.056
G3 X14.589 Y11.0379 I0 J1.1640
G3 X14.977 Y11.299 I-0.4710 J1.12
G0 Z5
G0 X10.732 Y6.0804
G1 Z-0.25 F150
G3 X10.4750 Y6.465 I-1.1 J-0.458 F125
G3 X10.09 Y6.722 I-0.842 J-0.842
G3 X9.64 Y6.812 I-0.451 J-1.082
G3 X9.1900 Y6.722 I0 J-1.1640
G3 X8.808 Y6.4639 I0.454 J-1.083
G3 X8.555 Y6.0809 I0.843 J-0.833
G3 X8.4660 Y5.6299 I1.1 J-0.451
G3 X8.555 Y5.179 I1.18 J0
G3 X8.8090 Y4.7989 I1.08 J0.446
G3 X9.189 Y4.545 I0.8260 J0.8260
G3 X9.64 Y4.4559 I0.4499 J1.091
G3 X10.0910 Y4.545 I0 J1.189
G3 X10.474 Y4.798 I-0.4499 J1.097
G3 X10.732 Y5.18 I-0.8250 J0.836
G3 X10.8220 Y5.6299 I-1.073 J0.4499
G3 X10.732 Y6.08 I-1.172 J0

(star)
G0 Z5
T1 M6
G0 X11.9317 Y11.0457
G1 Z-0.15 F150
G1 X12.494 Y9.77 F150
G1 X13.8799 Y9.921
G1 X13.057 Y8.7960
G1 X13.8799 Y7.671
G1 X12.494 Y7.821
G1 X11.932 Y6.5459
G1 X11.369 Y7.821
G1 X9.983 Y7.671
G1 X10.807 Y8.7960
G1 X9.983 Y9.921
G1 X11.369 Y9.77
G1 X11.932 Y11.046
G0 Z5
M5
M30
