(Generated by PartKam Version 0.05)

G21 G90 G40

(cutout)
G0 Z5
T0 M6
G17
M3
G0 X40.80939086294416 Y38.743654822335024
G1 Z-0.25 F100
G1 X40.80964467005076 Y20.45685279187817 F150
G3 X41.32994923857868 Y17.83502538071066 I6.845177664974619 J0
G3 X42.81472081218274 Y15.614213197969544 I6.324873096446701 J2.6192893401015227
G3 X45.035532994923855 Y14.131979695431472 I4.84010152284264 J4.84010152284264
G3 X47.65482233502538 Y13.609137055837564 I2.6192893401015227 J6.324873096446701
G1 X65.94416243654823 Y13.609137055837564
G3 X68.56345177664974 Y14.131979695431472 I0 J6.845177664974619
G3 X70.78426395939087 Y15.614213197969544 I-2.6192893401015227 J6.324873096446701
G3 X72.26903553299492 Y17.83502538071066 I-4.84010152284264 J4.84010152284264
G3 X72.78934010152284 Y20.45685279187817 I-6.324873096446701 J2.6192893401015227
G1 X72.78934010152284 Y38.743654822335024
G3 X72.55583756345177 Y40.515228426395936 I-6.845177664974619 J0
G3 X71.8730964467005 Y42.16751269035533 I-6.611675126903553 J-1.7715736040609138
G3 X70.78426395939087 Y43.58375634517767 I-5.928934010152284 J-3.4238578680203045
G3 X69.36548223350255 Y44.672588832487314 I-4.84010152284264 J-4.84010152284264
G3 X67.71573604060913 Y45.35532994923858 I-3.4238578680203045 J-5.928934010152284
G3 X65.94416243654823 Y45.588832487309645 I-1.7715736040609138 J-6.611675126903553
G1 X47.65482233502538 Y45.588832487309645
G3 X45.88324873096447 Y45.35532994923858 I0 J-6.845177664974619
G3 X44.23350253807107 Y44.672588832487314 I1.7715736040609138 J-6.611675126903553
G3 X42.81472081218274 Y43.58375634517767 I3.4238578680203045 J-5.928934010152284
G3 X41.7258883248731 Y42.16751269035533 I4.84010152284264 J-4.84010152284264
G3 X41.04314720812183 Y40.515228426395936 I5.928934010152284 J-3.4238578680203045
G3 X40.80964467005076 Y38.743654822335024 I6.611675126903553 J-1.7715736040609138
G1 Z-0.5 F100
G1 X40.80964467005076 Y20.45685279187817 F150
G3 X41.32994923857868 Y17.83502538071066 I6.845177664974619 J0
G3 X42.81472081218274 Y15.614213197969544 I6.324873096446701 J2.6192893401015227
G3 X45.035532994923855 Y14.131979695431472 I4.84010152284264 J4.84010152284264
G3 X47.65482233502538 Y13.609137055837564 I2.6192893401015227 J6.324873096446701
G1 X65.94416243654823 Y13.609137055837564
G3 X68.56345177664974 Y14.131979695431472 I0 J6.845177664974619
G3 X70.78426395939087 Y15.614213197969544 I-2.6192893401015227 J6.324873096446701
G3 X72.26903553299492 Y17.83502538071066 I-4.84010152284264 J4.84010152284264
G3 X72.78934010152284 Y20.45685279187817 I-6.324873096446701 J2.6192893401015227
G1 X72.78934010152284 Y38.743654822335024
G3 X72.55583756345177 Y40.515228426395936 I-6.845177664974619 J0
G3 X71.8730964467005 Y42.16751269035533 I-6.611675126903553 J-1.7715736040609138
G3 X70.78426395939087 Y43.58375634517767 I-5.928934010152284 J-3.4238578680203045
G3 X69.36548223350255 Y44.672588832487314 I-4.84010152284264 J-4.84010152284264
G3 X67.71573604060913 Y45.35532994923858 I-3.4238578680203045 J-5.928934010152284
G3 X65.94416243654823 Y45.588832487309645 I-1.7715736040609138 J-6.611675126903553
G1 X47.65482233502538 Y45.588832487309645
G3 X45.88324873096447 Y45.35532994923858 I0 J-6.845177664974619
G3 X44.23350253807107 Y44.672588832487314 I1.7715736040609138 J-6.611675126903553
G3 X42.81472081218274 Y43.58375634517767 I3.4238578680203045 J-5.928934010152284
G3 X41.7258883248731 Y42.16751269035533 I4.84010152284264 J-4.84010152284264
G3 X41.04314720812183 Y40.515228426395936 I5.928934010152284 J-3.4238578680203045
G3 X40.80964467005076 Y38.743654822335024 I6.611675126903553 J-1.7715736040609138
G1 Z-0.75 F100
G1 X40.80964467005076 Y20.45685279187817 F150
G3 X41.32994923857868 Y17.83502538071066 I6.845177664974619 J0
G3 X42.81472081218274 Y15.614213197969544 I6.324873096446701 J2.6192893401015227
G3 X45.035532994923855 Y14.131979695431472 I4.84010152284264 J4.84010152284264
G3 X47.65482233502538 Y13.609137055837564 I2.6192893401015227 J6.324873096446701
G1 X65.94416243654823 Y13.609137055837564
G3 X68.56345177664974 Y14.131979695431472 I0 J6.845177664974619
G3 X70.78426395939087 Y15.614213197969544 I-2.6192893401015227 J6.324873096446701
G3 X72.26903553299492 Y17.83502538071066 I-4.84010152284264 J4.84010152284264
G3 X72.78934010152284 Y20.45685279187817 I-6.324873096446701 J2.6192893401015227
G1 X72.78934010152284 Y38.743654822335024
G3 X72.55583756345177 Y40.515228426395936 I-6.845177664974619 J0
G3 X71.8730964467005 Y42.16751269035533 I-6.611675126903553 J-1.7715736040609138
G3 X70.78426395939087 Y43.58375634517767 I-5.928934010152284 J-3.4238578680203045
G3 X69.36548223350255 Y44.672588832487314 I-4.84010152284264 J-4.84010152284264
G3 X67.71573604060913 Y45.35532994923858 I-3.4238578680203045 J-5.928934010152284
G3 X65.94416243654823 Y45.588832487309645 I-1.7715736040609138 J-6.611675126903553
G1 X47.65482233502538 Y45.588832487309645
G3 X45.88324873096447 Y45.35532994923858 I0 J-6.845177664974619
G3 X44.23350253807107 Y44.672588832487314 I1.7715736040609138 J-6.611675126903553
G3 X42.81472081218274 Y43.58375634517767 I3.4238578680203045 J-5.928934010152284
G3 X41.7258883248731 Y42.16751269035533 I4.84010152284264 J-4.84010152284264
G3 X41.04314720812183 Y40.515228426395936 I5.928934010152284 J-3.4238578680203045
G3 X40.80964467005076 Y38.743654822335024 I6.611675126903553 J-1.7715736040609138
G1 Z-1 F100
G1 X40.80964467005076 Y20.45685279187817 F150
G3 X41.32994923857868 Y17.83502538071066 I6.845177664974619 J0
G3 X42.81472081218274 Y15.614213197969544 I6.324873096446701 J2.6192893401015227
G3 X45.035532994923855 Y14.131979695431472 I4.84010152284264 J4.84010152284264
G3 X47.65482233502538 Y13.609137055837564 I2.6192893401015227 J6.324873096446701
G1 X65.94416243654823 Y13.609137055837564
G3 X68.56345177664974 Y14.131979695431472 I0 J6.845177664974619
G3 X70.78426395939087 Y15.614213197969544 I-2.6192893401015227 J6.324873096446701
G3 X72.26903553299492 Y17.83502538071066 I-4.84010152284264 J4.84010152284264
G3 X72.78934010152284 Y20.45685279187817 I-6.324873096446701 J2.6192893401015227
G1 X72.78934010152284 Y38.743654822335024
G3 X72.55583756345177 Y40.515228426395936 I-6.845177664974619 J0
G3 X71.8730964467005 Y42.16751269035533 I-6.611675126903553 J-1.7715736040609138
G3 X70.78426395939087 Y43.58375634517767 I-5.928934010152284 J-3.4238578680203045
G3 X69.36548223350255 Y44.672588832487314 I-4.84010152284264 J-4.84010152284264
G3 X67.71573604060913 Y45.35532994923858 I-3.4238578680203045 J-5.928934010152284
G3 X65.94416243654823 Y45.588832487309645 I-1.7715736040609138 J-6.611675126903553
G1 X47.65482233502538 Y45.588832487309645
G3 X45.88324873096447 Y45.35532994923858 I0 J-6.845177664974619
G3 X44.23350253807107 Y44.672588832487314 I1.7715736040609138 J-6.611675126903553
G3 X42.81472081218274 Y43.58375634517767 I3.4238578680203045 J-5.928934010152284
G3 X41.7258883248731 Y42.16751269035533 I4.84010152284264 J-4.84010152284264
G3 X41.04314720812183 Y40.515228426395936 I5.928934010152284 J-3.4238578680203045
G3 X40.80964467005076 Y38.743654822335024 I6.611675126903553 J-1.7715736040609138
G1 Z-1.25 F100
G1 X40.80964467005076 Y20.45685279187817 F150
G3 X41.32994923857868 Y17.83502538071066 I6.845177664974619 J0
G3 X42.81472081218274 Y15.614213197969544 I6.324873096446701 J2.6192893401015227
G3 X45.035532994923855 Y14.131979695431472 I4.84010152284264 J4.84010152284264
G3 X47.65482233502538 Y13.609137055837564 I2.6192893401015227 J6.324873096446701
G1 X65.94416243654823 Y13.609137055837564
G3 X68.56345177664974 Y14.131979695431472 I0 J6.845177664974619
G3 X70.78426395939087 Y15.614213197969544 I-2.6192893401015227 J6.324873096446701
G3 X72.26903553299492 Y17.83502538071066 I-4.84010152284264 J4.84010152284264
G3 X72.78934010152284 Y20.45685279187817 I-6.324873096446701 J2.6192893401015227
G1 X72.78934010152284 Y38.743654822335024
G3 X72.55583756345177 Y40.515228426395936 I-6.845177664974619 J0
G3 X71.8730964467005 Y42.16751269035533 I-6.611675126903553 J-1.7715736040609138
G3 X70.78426395939087 Y43.58375634517767 I-5.928934010152284 J-3.4238578680203045
G3 X69.36548223350255 Y44.672588832487314 I-4.84010152284264 J-4.84010152284264
G3 X67.71573604060913 Y45.35532994923858 I-3.4238578680203045 J-5.928934010152284
G3 X65.94416243654823 Y45.588832487309645 I-1.7715736040609138 J-6.611675126903553
G1 X47.65482233502538 Y45.588832487309645
G3 X45.88324873096447 Y45.35532994923858 I0 J-6.845177664974619
G3 X44.23350253807107 Y44.672588832487314 I1.7715736040609138 J-6.611675126903553
G3 X42.81472081218274 Y43.58375634517767 I3.4238578680203045 J-5.928934010152284
G3 X41.7258883248731 Y42.16751269035533 I4.84010152284264 J-4.84010152284264
G3 X41.04314720812183 Y40.515228426395936 I5.928934010152284 J-3.4238578680203045
G3 X40.80964467005076 Y38.743654822335024 I6.611675126903553 J-1.7715736040609138
G1 Z-1.5 F100
G1 X40.80964467005076 Y20.45685279187817 F150
G3 X41.32994923857868 Y17.83502538071066 I6.845177664974619 J0
G3 X42.81472081218274 Y15.614213197969544 I6.324873096446701 J2.6192893401015227
G3 X45.035532994923855 Y14.131979695431472 I4.84010152284264 J4.84010152284264
G3 X47.65482233502538 Y13.609137055837564 I2.6192893401015227 J6.324873096446701
G1 X65.94416243654823 Y13.609137055837564
G3 X68.56345177664974 Y14.131979695431472 I0 J6.845177664974619
G3 X70.78426395939087 Y15.614213197969544 I-2.6192893401015227 J6.324873096446701
G3 X72.26903553299492 Y17.83502538071066 I-4.84010152284264 J4.84010152284264
G3 X72.78934010152284 Y20.45685279187817 I-6.324873096446701 J2.6192893401015227
G1 X72.78934010152284 Y38.743654822335024
G3 X72.55583756345177 Y40.515228426395936 I-6.845177664974619 J0
G3 X71.8730964467005 Y42.16751269035533 I-6.611675126903553 J-1.7715736040609138
G3 X70.78426395939087 Y43.58375634517767 I-5.928934010152284 J-3.4238578680203045
G3 X69.36548223350255 Y44.672588832487314 I-4.84010152284264 J-4.84010152284264
G3 X67.71573604060913 Y45.35532994923858 I-3.4238578680203045 J-5.928934010152284
G3 X65.94416243654823 Y45.588832487309645 I-1.7715736040609138 J-6.611675126903553
G1 X47.65482233502538 Y45.588832487309645
G3 X45.88324873096447 Y45.35532994923858 I0 J-6.845177664974619
G3 X44.23350253807107 Y44.672588832487314 I1.7715736040609138 J-6.611675126903553
G3 X42.81472081218274 Y43.58375634517767 I3.4238578680203045 J-5.928934010152284
G3 X41.7258883248731 Y42.16751269035533 I4.84010152284264 J-4.84010152284264
G3 X41.04314720812183 Y40.515228426395936 I5.928934010152284 J-3.4238578680203045
G3 X40.80964467005076 Y38.743654822335024 I6.611675126903553 J-1.7715736040609138
G0 Z5
M5
M30
