(Generated by PartKam Version 0.05)

G21 G90 G40

(drill)
G0 Z2
T0 M6
G17
M3
G0 X46.91065989847716 Y40.362182741116754
G1 Z-1.6 F150
G1 Z0 F150
G0 Z2
G0 X51.9994923857868 Y40.362182741116754
G1 Z-1.6 F150
G1 Z0 F150
G0 Z2
G0 X54.543908629441624 Y40.362182741116754
G1 Z-1.6 F150
G1 Z0 F150
G0 Z2
G0 X62.15507614213198 Y40.371065989847715
G1 Z-1.6 F150
G1 Z0 F150
G0 Z2
G0 X67.23502538071067 Y40.371065989847715
G1 Z-1.6 F150
G1 Z0 F150
G0 Z2
G0 X46.91065989847716 Y37.830964467005074
G1 Z-1.6 F150
G1 Z0 F150
G0 Z2
G0 X62.16395939086294 Y37.830964467005074
G1 Z-1.6 F150
G1 Z0 F150
G0 Z2
G0 X67.24390862944162 Y37.82664974619289
G1 Z-1.6 F150
G1 Z0 F150
G0 Z2
G0 X46.91065989847716 Y35.28654822335025
G1 Z-1.6 F150
G1 Z0 F150
G0 Z2
G0 X52.00837563451777 Y35.290862944162434
G1 Z-1.6 F150
G1 Z0 F150
G0 Z2
G0 X57.0751269035533 Y35.290862944162434
G1 Z-1.6 F150
G1 Z0 F150
G0 Z2
G0 X62.15507614213198 Y35.28654822335025
G1 Z-1.6 F150
G1 Z0 F150
G0 Z2
G0 X67.23502538071067 Y35.28223350253807
G1 Z-1.6 F150
G1 Z0 F150
G0 Z2
G0 X46.91497461928934 Y32.74644670050761
G1 Z-1.6 F150
G1 Z0 F150
G0 Z2
G0 X51.994923857868024 Y32.74213197969543
G1 Z-1.6 F150
G1 Z0 F150
G0 Z2
G0 X57.0751269035533 Y32.74213197969543
G1 Z-1.6 F150
G1 Z0 F150
G0 Z2
G0 X62.15507614213198 Y32.74644670050761
G1 Z-1.6 F150
G1 Z0 F150
G0 Z2
G0 X67.23502538071067 Y32.74213197969543
G1 Z-1.6 F150
G1 Z0 F150
G0 Z2
G0 X46.91497461928934 Y30.206598984771574
G1 Z-1.6 F150
G1 Z0 F150
G0 Z2
G0 X62.15507614213198 Y30.206598984771574
G1 Z-1.6 F150
G1 Z0 F150
G0 Z2
G0 X67.23502538071067 Y30.202030456852793
G1 Z-1.6 F150
G1 Z0 F150
G0 Z2
G0 X46.91497461928934 Y27.66218274111675
G1 Z-1.6 F150
G1 Z0 F150
G0 Z2
G0 X51.994923857868024 Y27.671065989847715
G1 Z-1.6 F150
G1 Z0 F150
G0 Z2
G0 X57.0751269035533 Y27.671065989847715
G1 Z-1.6 F150
G1 Z0 F150
G0 Z2
G0 X62.15507614213198 Y27.65761421319797
G1 Z-1.6 F150
G1 Z0 F150
G0 Z2
G0 X67.23502538071067 Y27.66218274111675
G1 Z-1.6 F150
G1 Z0 F150
G0 Z2
G0 X46.91497461928934 Y25.130964467005075
G1 Z-1.6 F150
G1 Z0 F150
G0 Z2
G0 X51.994923857868024 Y25.12208121827411
G1 Z-1.6 F150
G1 Z0 F150
G0 Z2
G0 X57.0751269035533 Y25.12208121827411
G1 Z-1.6 F150
G1 Z0 F150
G0 Z2
G0 X67.23502538071067 Y25.126649746192893
G1 Z-1.6 F150
G1 Z0 F150
G0 Z2
G0 X46.91497461928934 Y22.586548223350253
G1 Z-1.6 F150
G1 Z0 F150
G0 Z2
G0 X67.23502538071067 Y22.57766497461929
G1 Z-1.6 F150
G1 Z0 F150
G0 Z2
G0 X51.98629441624365 Y20.04213197969543
G1 Z-1.6 F150
G1 Z0 F150
G0 Z2
G0 X54.543908629441624 Y20.04213197969543
G1 Z-1.6 F150
G1 Z0 F150
G0 Z2
G0 X59.61497461928934 Y20.051015228426397
G1 Z-1.6 F150
G1 Z0 F150
G0 Z2
G0 X59.628172588832484 Y17.497715736040607
G1 Z-1.6 F150
G1 Z0 F150
G0 Z2
M5
M30
