(Generated by PartKam Version 0.05)

G21 G90 G40

(traces)
G0 Z2
T0 M6
G17
M3
G0 X61.05964467005076 Y38.38527918781726
G1 Z-0.2 F150
G1 X48.02030456852792 Y38.38578680203045 F150
G3 X47.91624365482234 Y38.55329949238579 I-1.1243654822335025 J-0.5761421319796954
G3 X47.6497461928934 Y38.82233502538071 I-1.0203045685279188 J-0.7436548223350253
G3 X47.30203045685279 Y39.00253807106599 I-0.7360406091370558 J-0.9898477157360407
G3 X46.91878172588832 Y39.06345177664975 I-0.383248730964467 J-1.1522842639593909
G3 X46.44670050761421 Y38.96954314720812 I0 J-1.2411167512690355
G3 X46.04060913705584 Y38.70304568527919 I0.47969543147208127 J-1.1649746192893402
G3 X45.76903553299492 Y38.299492385786806 I0.8781725888324874 J-0.8883248730964467
G3 X45.67258883248731 Y37.82741116751269 I1.1218274111675126 J-0.47208121827411165
G3 X45.76903553299492 Y37.35279187817259 I1.2258883248730965 J0
G3 X46.04060913705584 Y36.94670050761421 I1.16751269035533 J0.48984771573604063
G3 X46.44670050761421 Y36.6751269035533 I0.8959390862944162 J0.8959390862944162
G3 X46.91878172588832 Y36.578680203045685 I0.47208121827411165 J1.1294416243654823
G3 X47.307106598984774 Y36.64467005076142 I0 J1.2208121827411167
G3 X47.65989847715736 Y36.82741116751269 I-0.3959390862944162 J1.1776649746192893
G3 X47.92893401015228 Y37.10659898477157 I-0.7588832487309645 J1.0101522842639594
G3 X48.03045685279188 Y37.27664974619289 I-1.0203045685279188 J0.7258883248730964
G1 X61.04822335025381 Y37.27664974619289
G3 X61.09644670050762 Y37.18527918781726 I1.134517766497462 J0.5583756345177665
G3 X61.2741116751269 Y36.95685279187818 I1.0812182741116751 J0.6446700507614213
G3 X61.5 Y36.77157360406091 I0.8934010152284264 J0.8654822335025381
G3 X61.59137055837563 Y36.71827411167513 I0.6522842639593909 J1.0279187817258884
G1 X61.59137055837563 Y36.38578680203046
G3 X61.423857868020306 Y36.28172588832487 I0.5761421319796954 J-1.1243654822335025
G3 X61.154822335025386 Y36.015228426395936 I0.7436548223350253 J-1.0203045685279188
G3 X60.9746192893401 Y35.67005076142132 I0.9898477157360407 J-0.7360406091370558
G3 X60.91370558375634 Y35.286802030456855 I1.1522842639593909 J-0.383248730964467
G3 X60.9746192893401 Y34.90355329949239 I1.218274111675127 J0
G3 X61.154822335025386 Y34.558375634517766 I1.1700507614213198 J0.3883248730964467
G3 X61.423857868020306 Y34.28934010152284 I1.0101522842639594 J0.748730964467005
G3 X61.59137055837563 Y34.18781725888325 I0.7411167512690355 J1.017766497461929
G1 X61.59137055837563 Y33.84771573604061
G3 X61.423857868020306 Y33.746192893401016 I0.5685279187817259 J-1.1269035532994924
G3 X61.154822335025386 Y33.48223350253807 I0.7233502538071066 J-1.0101522842639594
G3 X60.9746192893401 Y33.13959390862944 I0.9695431472081218 J-0.7284263959390863
G3 X60.91370558375634 Y32.756345177664976 I1.1472081218274113 J-0.383248730964467
G3 X60.9746192893401 Y32.370558375634516 I1.2284263959390864 J0
G3 X61.154822335025386 Y32.02284263959391 I1.1903553299492384 J0.3934010152284264
G3 X61.423857868020306 Y31.751269035532992 I1.0253807106598984 J0.748730964467005
G3 X61.59137055837563 Y31.64720812182741 I0.7335025380710659 J0.9949238578680203
G1 X61.59137055837563 Y31.307106598984774
G3 X61.423857868020306 Y31.20304568527919 I0.5761421319796954 J-1.1243654822335025
G3 X61.154822335025386 Y30.936548223350254 I0.7436548223350253 J-1.0203045685279188
G3 X60.9746192893401 Y30.588832487309645 I0.9898477157360407 J-0.7360406091370558
G3 X60.91370558375634 Y30.205583756345177 I1.1522842639593909 J-0.383248730964467
G3 X60.9746192893401 Y29.8248730964467 I1.2131979695431472 J0
G3 X61.154822335025386 Y29.47715736040609 I1.1700507614213198 J0.3883248730964467
G3 X61.423857868020306 Y29.210659898477157 I1.012690355329949 J0.751269035532995
G3 X61.59137055837563 Y29.106598984771573 I0.7436548223350253 J1.0203045685279188
G1 X61.59137055837563 Y28.774111675126903
G3 X61.423857868020306 Y28.67005076142132 I0.565989847715736 J-1.098984771573604
G3 X61.154822335025386 Y28.398477157360404 I0.7538071065989848 J-1.0228426395939085
G3 X60.9746192893401 Y28.050761421319798 I1.012690355329949 J-0.7411167512690355
G3 X60.91370558375634 Y27.66751269035533 I1.1649746192893402 J-0.383248730964467
G3 X61.00761421319797 Y27.192893401015226 I1.215736040609137 J0
G3 X61.28172588832487 Y26.791878172588834 I1.1497461928934012 J0.4847715736040609
G3 X61.68527918781726 Y26.522842639593907 I0.8857868020304569 J0.8959390862944162
G3 X62.15989847715736 Y26.428934010152286 I0.47461928934010156 J1.1472081218274113
G3 X62.63197969543147 Y26.522842639593907 I0 J1.233502538071066
G3 X63.03299492385787 Y26.791878172588834 I-0.47715736040609136 J1.1472081218274113
G3 X63.3020304568528 Y27.192893401015226 I-0.8781725888324874 J0.8781725888324874
G3 X63.39847715736041 Y27.66751269035533 I-1.1395939086294418 J0.47208121827411165
G3 X63.33502538071066 Y28.05329949238579 I-1.233502538071066 J0
G3 X63.152284263959395 Y28.403553299492387 I-1.1802030456852792 J-0.3908629441624366
G3 X62.878172588832484 Y28.6751269035533 I-1.0101522842639594 J-0.748730964467005
G3 X62.70812182741117 Y28.776649746192895 I-0.7258883248730964 J-1.0050761421319796
G1 X62.70812182741117 Y29.096446700507613
G3 X62.878172588832484 Y29.19796954314721 I-0.5532994923857868 J1.1065989847715736
G3 X63.154822335025386 Y29.469543147208125 I-0.7335025380710659 J1.017766497461929
G3 X63.33502538071066 Y29.819796954314718 I-0.9974619289340102 J0.7385786802030457
G3 X63.39847715736041 Y30.205583756345177 I-1.1725888324873095 J0.3883248730964467
G3 X63.33502538071066 Y30.593908629441625 I-1.236040609137056 J0
G3 X63.154822335025386 Y30.944162436548226 I-1.1776649746192893 J-0.3908629441624366
G3 X62.878172588832484 Y31.215736040609137 I-1.0076142131979695 J-0.7461928934010152
G3 X62.70812182741117 Y31.31725888324873 I-0.7233502538071066 J-1.0050761421319796
G1 X62.70812182741117 Y31.644670050761423
G3 X62.878172588832484 Y31.748730964467008 I-0.5558375634517766 J1.1065989847715736
G3 X63.152284263959395 Y32.01776649746193 I-0.7360406091370558 J1.0203045685279188
G3 X63.33502538071066 Y32.36802030456853 I-0.9974619289340102 J0.7411167512690355
G3 X63.39847715736041 Y32.756345177664976 I-1.1700507614213198 J0.3883248730964467
G3 X63.33502538071066 Y33.14213197969543 I-1.215736040609137 J0
G3 X63.152284263959395 Y33.48730964467005 I-1.1395939086294418 J-0.383248730964467
G3 X62.878172588832484 Y33.748730964467 I-0.9796954314720813 J-0.7436548223350253
G3 X62.70812182741117 Y33.8502538071066 I-0.7258883248730964 J-1.0355329949238579
G1 X62.70812182741117 Y34.18527918781726
G3 X62.878172588832484 Y34.286802030456855 I-0.5634517766497462 J1.1294416243654823
G3 X63.152284263959395 Y34.55329949238579 I-0.7233502538071066 J1.015228426395939
G3 X63.33502538071066 Y34.89847715736041 I-0.9771573604060914 J0.7335025380710659
G3 X63.39847715736041 Y35.286802030456855 I-1.1598984771573604 J0.3857868020304569
G3 X63.33502538071066 Y35.6751269035533 I-1.236040609137056 J0
G3 X63.154822335025386 Y36.02284263959391 I-1.1776649746192893 J-0.3908629441624366
G3 X62.878172588832484 Y36.29441624365482 I-1.0076142131979695 J-0.7461928934010152
G3 X62.70812182741117 Y36.398477157360404 I-0.7233502538071066 J-1.0050761421319796
G1 X62.70812182741117 Y36.71573604060914
G3 X62.80456852791878 Y36.76903553299492 I-0.5583756345177665 J1.119289340101523
G3 X63.035532994923855 Y36.9492385786802 I-0.6573604060913706 J1.0736040609137056
G3 X63.21827411167512 Y37.182741116751274 I-0.883248730964467 J0.8857868020304569
G3 X63.27157360406091 Y37.27664974619289 I-1.0456852791878173 J0.6395939086294417
G1 X66.12690355329948 Y37.27664974619289
G3 X66.17766497461929 Y37.18527918781726 I1.1218274111675126 J0.5532994923857868
G3 X66.35786802030456 Y36.95177664974619 I1.0710659898477157 J0.6472081218274112
G3 X66.58629441624366 Y36.76903553299492 I0.8857868020304569 J0.8730964467005076
G3 X66.68020304568527 Y36.71573604060914 I0.6497461928934011 J1.0456852791878173
G1 X66.68020304568527 Y36.39593908629442
G3 X66.51269035532995 Y36.29441624365482 I0.5609137055837563 J-1.1116751269035532
G3 X66.23857868020305 Y36.02284263959391 I0.7411167512690355 J-1.0253807106598984
G3 X66.05583756345177 Y35.67258883248731 I1.00253807106599 J-0.7436548223350253
G3 X65.99238578680203 Y35.286802030456855 I1.1624365482233503 J-0.3857868020304569
G3 X66.05583756345177 Y34.901015228426395 I1.2106598984771573 J0
G3 X66.23857868020305 Y34.55329949238579 I1.1624365482233503 J0.3908629441624366
G3 X66.51015228426397 Y34.286802030456855 I1.0050761421319796 J0.7563451776649746
G3 X66.68020304568527 Y34.18527918781726 I0.7385786802030457 J1.0304568527918783
G1 X66.68020304568527 Y33.8502538071066
G3 X66.51269035532995 Y33.748730964467 I0.5634517766497462 J-1.1395939086294418
G3 X66.23857868020305 Y33.48477157360406 I0.7157360406091371 J-1.015228426395939
G3 X66.05583756345177 Y33.13959390862944 I0.9593908629441625 J-0.7309644670050762
G3 X65.99238578680203 Y32.756345177664976 I1.1421319796954315 J-0.3857868020304569
G3 X66.05583756345177 Y32.36802030456853 I1.2208121827411167 J0
G3 X66.23857868020305 Y32.02030456852792 I1.1852791878172588 J0.3934010152284264
G3 X66.51269035532995 Y31.748730964467008 I1.017766497461929 J0.7563451776649746
G3 X66.68020304568527 Y31.644670050761423 I0.7309644670050762 J1.0076142131979695
G1 X66.68020304568527 Y31.31725888324873
G3 X66.51269035532995 Y31.213197969543145 I0.5609137055837563 J-1.1116751269035532
G3 X66.23857868020305 Y30.941624365482234 I0.7411167512690355 J-1.0253807106598984
G3 X66.05583756345177 Y30.593908629441625 I1.00253807106599 J-0.7436548223350253
G3 X65.99238578680203 Y30.205583756345177 I1.1624365482233503 J-0.3857868020304569
G3 X66.05583756345177 Y29.819796954314718 I1.2233502538071066 J0
G3 X66.23857868020305 Y29.469543147208125 I1.182741116751269 J0.3934010152284264
G3 X66.51269035532995 Y29.200507614213194 I1.015228426395939 J0.7538071065989848
G3 X66.68020304568527 Y29.096446700507613 I0.7284263959390863 J1.0076142131979695
G1 X66.68020304568527 Y28.776649746192895
G3 X66.51269035532995 Y28.67258883248731 I0.5609137055837563 J-1.1116751269035532
G3 X66.23857868020305 Y28.403553299492387 I0.7436548223350253 J-1.0279187817258884
G3 X66.05583756345177 Y28.05329949238579 I1.00253807106599 J-0.7436548223350253
G3 X65.99238578680203 Y27.66751269035533 I1.1598984771573604 J-0.3857868020304569
G3 X66.05583756345177 Y27.281725888324875 I1.2106598984771573 J0
G3 X66.23857868020305 Y26.934010152284262 I1.1624365482233503 J0.3908629441624366
G3 X66.51015228426397 Y26.66751269035533 I1.0050761421319796 J0.7563451776649746
G3 X66.68020304568527 Y26.565989847715734 I0.7385786802030457 J1.0304568527918783
G1 X66.68020304568527 Y26.22842639593909
G3 X66.51015228426397 Y26.124365482233504 I0.5685279187817259 J-1.134517766497462
G3 X66.23857868020305 Y25.86040609137056 I0.7309644670050762 J-1.0228426395939085
G3 X66.05583756345177 Y25.512690355329948 I0.9796954314720813 J-0.7385786802030457
G3 X65.99238578680203 Y25.126903553299492 I1.1497461928934012 J-0.3857868020304569
G3 X66.05583756345177 Y24.741116751269033 I1.2208121827411167 J0
G3 X66.23857868020305 Y24.390862944162436 I1.1852791878172588 J0.3934010152284264
G3 X66.51269035532995 Y24.119289340101524 I1.017766497461929 J0.7563451776649746
G3 X66.68020304568527 Y24.017766497461928 I0.7309644670050762 J1.0076142131979695
G1 X66.68020304568527 Y23.695431472081218
G3 X66.51269035532995 Y23.59390862944162 I0.5609137055837563 J-1.1116751269035532
G3 X66.23857868020305 Y23.32233502538071 I0.7411167512690355 J-1.0253807106598984
G3 X66.05583756345177 Y22.972081218274113 I1.00253807106599 J-0.7436548223350253
G3 X65.99238578680203 Y22.586294416243653 I1.1624365482233503 J-0.3857868020304569
G3 X66.08883248730965 Y22.114213197969544 I1.215736040609137 J0
G3 X66.36040609137056 Y21.710659898477157 I1.1497461928934012 J0.4847715736040609
G3 X66.76649746192894 Y21.441624365482234 I0.8857868020304569 J0.8959390862944162
G3 X67.23857868020305 Y21.34771573604061 I0.47461928934010156 J1.1472081218274113
G3 X67.71319796954315 Y21.444162436548222 I0 J1.233502538071066
G3 X68.11421319796955 Y21.710659898477157 I-0.47715736040609136 J1.1472081218274113
G3 X68.38324873096447 Y22.114213197969544 I-0.8781725888324874 J0.8781725888324874
G3 X68.4771573604061 Y22.586294416243653 I-1.1395939086294418 J0.47208121827411165
G3 X68.41370558375634 Y22.97715736040609 I-1.2284263959390864 J0
G3 X68.23096446700507 Y23.32741116751269 I-1.1725888324873095 J-0.3908629441624366
G3 X67.9517766497462 Y23.596446700507613 I-1.00253807106599 J-0.751269035532995
G3 X67.78172588832487 Y23.697969543147206 I-0.7208121827411168 J-1.017766497461929
G1 X67.78172588832487 Y24.01522842639594
G3 X67.9517766497462 Y24.116751269035532 I-0.5507614213197969 J1.119289340101523
G3 X68.2284263959391 Y24.385786802030456 I-0.7258883248730964 J1.0253807106598984
G3 X68.41370558375634 Y24.736040609137056 I-0.9898477157360407 J0.7436548223350253
G3 X68.4771573604061 Y25.126903553299492 I-1.1624365482233503 J0.3883248730964467
G3 X68.41370558375634 Y25.51776649746193 I-1.233502538071066 J0
G3 X68.23096446700507 Y25.868020304568525 I-1.1700507614213198 J-0.3908629441624366
G3 X67.9517766497462 Y26.13705583756345 I-1 J-0.751269035532995
G3 X67.78172588832487 Y26.238578680203048 I-0.7182741116751269 J-1.015228426395939
G1 X67.78172588832487 Y26.55329949238579
G3 X67.9517766497462 Y26.65482233502538 I-0.5456852791878173 J1.116751269035533
G3 X68.23096446700507 Y26.926395939086298 I-0.7208121827411168 J1.0203045685279188
G3 X68.41370558375634 Y27.27664974619289 I-0.9873096446700508 J0.7411167512690355
G3 X68.4771573604061 Y27.66751269035533 I-1.1700507614213198 J0.3908629441624366
G3 X68.41370558375634 Y28.055837563451774 I-1.2258883248730965 J0
G3 X68.2284263959391 Y28.406091370558375 I-1.1725888324873095 J-0.3934010152284264
G3 X67.9517766497462 Y28.67766497461929 I-1.0050761421319796 J-0.7538071065989848
G3 X67.78172588832487 Y28.779187817258883 I-0.7208121827411168 J-1.017766497461929
G1 X67.78172588832487 Y29.093908629441625
G3 X67.9517766497462 Y29.195431472081218 I-0.5482233502538071 J1.119289340101523
G3 X68.23096446700507 Y29.467005076142133 I-0.7233502538071066 J1.0228426395939085
G3 X68.41370558375634 Y29.817258883248734 I-0.9873096446700508 J0.7411167512690355
G3 X68.4771573604061 Y30.205583756345177 I-1.1649746192893402 J0.3908629441624366
G3 X68.41370558375634 Y30.596446700507617 I-1.2284263959390864 J0
G3 X68.23096446700507 Y30.94670050761421 I-1.1725888324873095 J-0.3908629441624366
G3 X67.9517766497462 Y31.218274111675125 I-1.00253807106599 J-0.751269035532995
G3 X67.78172588832487 Y31.31979695431472 I-0.7208121827411168 J-1.017766497461929
G1 X67.78172588832487 Y31.63451776649746
G3 X67.9517766497462 Y31.736040609137056 I-0.5406091370558376 J1.0964467005076142
G3 X68.23096446700507 Y32.01269035532995 I-0.7335025380710659 J1.0253807106598984
G3 X68.41370558375634 Y32.36548223350254 I-1.0101522842639594 J0.748730964467005
G3 X68.4771573604061 Y32.756345177664976 I-1.1802030456852792 J0.3908629441624366
G3 X68.41370558375634 Y33.14467005076142 I-1.2258883248730965 J0
G3 X68.2284263959391 Y33.494923857868024 I-1.1522842639593909 J-0.3857868020304569
G3 X67.9517766497462 Y33.76142131979695 I-0.9822335025380711 J-0.7461928934010152
G3 X67.78172588832487 Y33.86040609137056 I-0.7131979695431472 J-1.0228426395939085
G1 X67.78172588832487 Y34.1751269035533
G3 X67.9517766497462 Y34.276649746192895 I-0.5456852791878173 J1.116751269035533
G3 X68.23096446700507 Y34.545685279187815 I-0.7208121827411168 J1.0203045685279188
G3 X68.41370558375634 Y34.89593908629442 I-0.9873096446700508 J0.7411167512690355
G3 X68.4771573604061 Y35.286802030456855 I-1.1700507614213198 J0.3908629441624366
G3 X68.41370558375634 Y35.67766497461929 I-1.2284263959390864 J0
G3 X68.23096446700507 Y36.02791878172589 I-1.1725888324873095 J-0.3908629441624366
G3 X67.9517766497462 Y36.29695431472081 I-1.00253807106599 J-0.751269035532995
G3 X67.78172588832487 Y36.398477157360404 I-0.7208121827411168 J-1.017766497461929
G1 X67.78172588832487 Y36.71573604060914
G3 X67.9517766497462 Y36.817258883248726 I-0.5507614213197969 J1.119289340101523
G3 X68.2284263959391 Y37.08629441624366 I-0.7258883248730964 J1.0253807106598984
G3 X68.41370558375634 Y37.43654822335025 I-0.9898477157360407 J0.7436548223350253
G3 X68.4771573604061 Y37.82741116751269 I-1.1624365482233503 J0.3883248730964467
G3 X68.41370558375634 Y38.21573604060914 I-1.233502538071066 J0
G3 X68.23096446700507 Y38.565989847715734 I-1.1700507614213198 J-0.3908629441624366
G3 X67.9517766497462 Y38.83756345177665 I-1 J-0.751269035532995
G3 X67.78172588832487 Y38.93908629441624 I-0.7182741116751269 J-1.015228426395939
G1 X67.78172588832487 Y39.253807106598984
G3 X67.9517766497462 Y39.35532994923858 I-0.5456852791878173 J1.116751269035533
G3 X68.23096446700507 Y39.62690355329949 I-0.7208121827411168 J1.0203045685279188
G3 X68.41370558375634 Y39.977157360406096 I-0.9873096446700508 J0.7411167512690355
G3 X68.4771573604061 Y40.36548223350253 I-1.1700507614213198 J0.3908629441624366
G3 X68.38324873096447 Y40.84010152284264 I-1.2411167512690355 J0
G3 X68.11421319796955 Y41.24365482233503 I-1.1649746192893402 J-0.47969543147208127
G3 X67.71319796954315 Y41.51776649746193 I-0.8883248730964467 J-0.8781725888324874
G3 X67.23857868020305 Y41.61421319796954 I-0.47208121827411165 J-1.1218274111675126
G3 X66.76649746192894 Y41.51776649746193 I0 J-1.2258883248730965
G3 X66.36040609137056 Y41.246192893401016 I0.48984771573604063 J-1.16751269035533
G3 X66.08883248730965 Y40.84010152284264 I0.8959390862944162 J-0.8959390862944162
G3 X65.99238578680203 Y40.36548223350253 I1.1294416243654823 J-0.47208121827411165
G3 X66.05583756345177 Y39.98223350253807 I1.2106598984771573 J0
G3 X66.23857868020305 Y39.63451776649747 I1.1624365482233503 J0.3908629441624366
G3 X66.51015228426397 Y39.368020304568525 I1.0050761421319796 J0.7563451776649746
G3 X66.68020304568527 Y39.263959390862944 I0.7385786802030457 J1.0304568527918783
G1 X66.68020304568527 Y38.92639593908629
G3 X66.59390862944163 Y38.878172588832484 I0.5532994923857868 J-1.0862944162436547
G3 X66.36802030456852 Y38.69796954314721 I0.6497461928934011 J-1.050761421319797
G3 X66.19035532994924 Y38.474619289340104 I0.8857868020304569 J-0.883248730964467
G3 X66.13959390862944 Y38.38578680203045 I1.0812182741116751 J-0.6700507614213198
G1 X63.25888324873097 Y38.38578680203045
G3 X63.20812182741116 Y38.477157360406096 I-1.1040609137055837 J-0.5710659898477157
G3 X63.025380710659896 Y38.700507614213194 I-1.0583756345177666 J-0.6649746192893401
G3 X62.799492385786806 Y38.878172588832484 I-0.8781725888324874 J-0.8883248730964467
G3 X62.70812182741117 Y38.92893401015228 I-0.6446700507614213 J-1.0583756345177666
G1 X62.70812182741117 Y39.263959390862944
G3 X62.878172588832484 Y39.36548223350254 I-0.5634517766497462 J1.1294416243654823
G3 X63.152284263959395 Y39.63197969543147 I-0.7233502538071066 J1.015228426395939
G3 X63.33502538071066 Y39.97969543147208 I-0.9771573604060914 J0.7335025380710659
G3 X63.39847715736041 Y40.36548223350253 I-1.1598984771573604 J0.3857868020304569
G3 X63.304568527918775 Y40.84010152284264 I-1.2411167512690355 J0
G3 X63.035532994923855 Y41.24365482233503 I-1.1649746192893402 J-0.47969543147208127
G3 X62.63197969543147 Y41.51776649746193 I-0.8883248730964467 J-0.8781725888324874
G3 X62.15989847715736 Y41.61421319796954 I-0.47208121827411165 J-1.1218274111675126
G3 X61.68527918781726 Y41.51776649746193 I0 J-1.2258883248730965
G3 X61.27918781725889 Y41.246192893401016 I0.48984771573604063 J-1.16751269035533
G3 X61.00761421319797 Y40.84010152284264 I0.8959390862944162 J-0.8959390862944162
G3 X60.91370558375634 Y40.36548223350253 I1.1294416243654823 J-0.47208121827411165
G3 X60.9746192893401 Y39.98223350253807 I1.218274111675127 J0
G3 X61.154822335025386 Y39.63705583756345 I1.1700507614213198 J0.3883248730964467
G3 X61.423857868020306 Y39.370558375634516 I1.0101522842639594 J0.748730964467005
G3 X61.59137055837563 Y39.266497461928935 I0.7411167512690355 J1.017766497461929
G1 X61.59137055837563 Y38.92639593908629
G3 X61.505076142131976 Y38.87563451776649 I0.5558375634517766 J-1.0659898477157361
G3 X61.28172588832487 Y38.69543147208122 I0.6598984771573604 J-1.0456852791878173
G3 X61.10913705583756 Y38.47208121827411 I0.8984771573604061 J-0.8807106598984772
G3 X61.05837563451777 Y38.38578680203045 I1.0964467005076142 J-0.6725888324873096
G0 Z2
G0 X57.061928934010155 Y18.04746192893401
G1 Z-0.2 F150
G1 X49.588832487309645 Y18.048223350253807 F150
G1 X45.01522842639594 Y20.34771573604061
G1 X45.83502538071066 Y23.51269035532995
G1 X46.40355329949238 Y23.98730964467005
G3 X46.56091370558376 Y23.931472081218274 I0.5 J1.119289340101523
G3 X46.73604060913705 Y23.893401015228427 I0.35025380710659904 J1.2106598984771573
G3 X46.91878172588832 Y23.88071065989848 I0.18274111675126906 J1.3045685279187818
G3 X47.390862944162436 Y23.9746192893401 I0 J1.215736040609137
G3 X47.79441624365482 Y24.248730964467008 I-0.4847715736040609 J1.1497461928934012
G3 X48.06345177664974 Y24.65228426395939 I-0.8959390862944162 J0.8857868020304569
G3 X48.15736040609137 Y25.126903553299492 I-1.1472081218274113 J0.47461928934010156
G3 X48.06345177664974 Y25.598984771573605 I-1.233502538071066 J0
G3 X47.79441624365482 Y26 I-1.1472081218274113 J-0.47715736040609136
G3 X47.39340101522843 Y26.269035532994923 I-0.8781725888324874 J-0.8781725888324874
G3 X46.91878172588832 Y26.365482233502537 I-0.47208121827411165 J-1.1395939086294418
G3 X46.44670050761421 Y26.27157360406091 I0 J-1.2411167512690355
G3 X46.04060913705584 Y26.002538071065988 I0.47969543147208127 J-1.1649746192893402
G3 X45.76903553299492 Y25.598984771573605 I0.8781725888324874 J-0.8883248730964467
G3 X45.67258883248731 Y25.126903553299492 I1.1218274111675126 J-0.47208121827411165
G3 X45.67766497461929 Y25.078680203045685 I0.24873096446700507 J0
G1 X45.72081218274111 Y24.85532994923858
G1 X45.07360406091371 Y24.31979695431472
G3 X45.0507614213198 Y24.30456852791878 I0.28426395939086296 J-0.47715736040609136
G3 X45.01522842639594 Y24.279187817258887 I0.30456852791878175 J-0.46446700507614214
G3 X44.98984771573604 Y24.258883248730964 I0.30456852791878175 J-0.46446700507614214
G3 X44.93654822335025 Y24.208121827411166 I0.14974619289340102 J-0.20050761421319796
G3 X44.91878172588833 Y24.182741116751266 I0.44416243654822335 J-0.33248730964467005
G1 X44.90609137055838 Y24.16497461928934
G3 X44.888324873096444 Y24.13959390862944 I0.44416243654822335 J-0.33248730964467005
G1 X44.8756345177665 Y24.124365482233504
G3 X44.86040609137056 Y24.098984771573605 I0.4619289340101523 J-0.3071065989847716
G3 X44.84263959390863 Y24.060913705583754 I0.21573604060913704 J-0.12690355329949238
G1 X44.835025380710654 Y24.038071065989847
G1 X44.82994923857868 Y24.022842639593907
G1 X44.824873096446694 Y24.01015228426396
G1 X44.819796954314725 Y23.99492385786802
G3 X44.7994923857868 Y23.916243654822335 I0.5253807106598986 J-0.17766497461928935
G3 X44.79187817258883 Y23.860406091370557 I0.5456852791878173 J-0.09898477157360405
G1 X43.852791878172596 Y20.304568527918782
G3 X43.80710659898477 Y20.15736040609137 I0.5 J-0.24111675126903553
G3 X43.799492385786806 Y20.06345177664975 I0.5456852791878173 J-0.09390862944162437
G3 X43.80710659898477 Y19.964467005076145 I0.5558375634517766 J0
G3 X43.81472081218274 Y19.934010152284266 I0.5456852791878173 J0.10152284263959391
G3 X43.82233502538071 Y19.908629441624367 I0.5380710659898478 J0.13451776649746194
G1 X43.82994923857868 Y19.883248730964468
G1 X43.83248730964467 Y19.870558375634516
G1 X43.83756345177665 Y19.85786802030457
G1 X43.845177664974614 Y19.840101522842637
G3 X43.9263959390863 Y19.68781725888325 I0.5228426395939086 J0.18527918781725888
G3 X44.05076142131979 Y19.571065989847718 I0.4416243654822335 J0.3375634517766497
G3 X44.203045685279186 Y19.49492385786802 I0.31725888324873097 J0.45431472081218277
G3 X44.30456852791878 Y19.4746192893401 I0.16243654822335027 J0.5304568527918782
G1 X49.109137055837564 Y17.048223350253807
G3 X49.192893401015226 Y16.99492385786802 I0.3426395939086294 J0.4365482233502538
G3 X49.30964467005076 Y16.949238578680202 I0.2614213197969543 J0.48984771573604063
G3 X49.482233502538065 Y16.921319796954315 I0.17258883248730966 J0.5279187817258884
G3 X49.619289340101524 Y16.939086294416242 I0 J0.5558375634517766
G1 X57.06345177664975 Y16.939086294416242
G1 X58.51015228426397 Y16.946700507614214
G3 X58.61167512690355 Y16.779187817258883 I1.134517766497462 J0.5710659898477157
G3 X58.87817258883249 Y16.50507614213198 I1.0228426395939085 J0.7309644670050762
G3 X59.2258883248731 Y16.32233502538071 I0.7385786802030457 J0.9796954314720813
G3 X59.611675126903556 Y16.258883248730964 I0.3857868020304569 J1.1497461928934012
G3 X60.08375634517766 Y16.35532994923858 I0 J1.2258883248730965
G3 X60.48984771573604 Y16.626903553299492 I-0.48984771573604063 J1.16751269035533
G3 X60.76142131979695 Y17.032994923857867 I-0.8959390862944162 J0.8959390862944162
G3 X60.857868020304565 Y17.50761421319797 I-1.1294416243654823 J0.47208121827411165
G3 X60.79441624365482 Y17.890862944162436 I-1.2106598984771573 J0
G3 X60.61167512690355 Y18.238578680203045 I-1.1624365482233503 J-0.3908629441624366
G3 X60.337563451776646 Y18.50507614213198 I-1.0050761421319796 J-0.7563451776649746
G3 X60.17005076142132 Y18.609137055837564 I-0.7385786802030457 J-1.0304568527918783
G1 X60.17005076142132 Y18.944162436548226
G3 X60.337563451776646 Y19.048223350253807 I-0.5685279187817259 J1.134517766497462
G3 X60.61167512690355 Y19.314720812182742 I-0.7309644670050762 J1.0228426395939085
G3 X60.79441624365482 Y19.65989847715736 I-0.9796954314720813 J0.7385786802030457
G3 X60.857868020304565 Y20.04568527918782 I-1.1497461928934012 J0.3857868020304569
G3 X60.76142131979695 Y20.52030456852792 I-1.2258883248730965 J0
G3 X60.48984771573604 Y20.926395939086294 I-1.16751269035533 J-0.48984771573604063
G3 X60.08375634517766 Y21.197969543147206 I-0.8959390862944162 J-0.8959390862944162
G3 X59.611675126903556 Y21.29187817258883 I-0.47208121827411165 J-1.1294416243654823
G3 X59.13705583756345 Y21.197969543147206 I0 J-1.215736040609137
G3 X58.736040609137056 Y20.923857868020303 I0.4847715736040609 J-1.1497461928934012
G3 X58.46700507614213 Y20.52030456852792 I0.8959390862944162 J-0.8857868020304569
G3 X58.37309644670051 Y20.04568527918782 I1.1472081218274113 J-0.47461928934010156
G3 X58.43654822335026 Y19.65989847715736 I1.2106598984771573 J0
G3 X58.619289340101524 Y19.314720812182742 I1.1624365482233503 J0.3908629441624366
G3 X58.89086294416244 Y19.048223350253807 I1.0050761421319796 J0.7563451776649746
G3 X59.06091370558376 Y18.944162436548226 I0.7385786802030457 J1.0304568527918783
G1 X59.06091370558376 Y18.606598984771573
G3 X58.96954314720812 Y18.555837563451774 I0.5609137055837563 J-1.1065989847715736
G3 X58.74111675126904 Y18.375634517766496 I0.6598984771573604 J-1.0685279187817258
G3 X58.56091370558375 Y18.14720812182741 I0.8883248730964467 J-0.8883248730964467
G3 X58.51015228426397 Y18.055837563451778 I1.0558375634517767 J-0.6497461928934011
G1 X57.06091370558376 Y18.048223350253807
G0 Z2
G0 X49.662944162436546 Y22.027918781725887
G1 Z-0.2 F150
G1 X54.38832487309645 Y22.027918781725887 F150
G3 X54.45177664974619 Y22.01522842639594 I0.13959390862944163 J0.5355329949238579
G3 X54.568527918781726 Y22.01015228426396 I0.07614213197969544 J0.5507614213197969
G3 X54.682741116751274 Y22.03045685279188 I-0.04060913705583757 J0.5532994923857868
G3 X54.766497461928935 Y22.063451776649746 I-0.15228426395939088 J0.5329949238578681
G3 X54.85786802030457 Y22.104060913705585 I-0.18274111675126906 J0.5228426395939086
G3 X54.95685279187818 Y22.17766497461929 I-0.27411167512690354 J0.48223350253807107
G3 X55.03807106598985 Y22.269035532994927 I-0.3730964467005076 J0.4111675126903553
G3 X55.07360406091371 Y22.3248730964467 I-0.45431472081218277 J0.31725888324873097
G1 X56.67766497461929 Y23.946700507614214
G3 X56.77157360406091 Y23.918781725888323 I0.4035532994923858 J1.1472081218274113
G3 X56.921319796954315 Y23.890862944162436 I0.29949238578680204 J1.1395939086294418
G3 X57.07106598984772 Y23.88071065989848 I0.14974619289340102 J1.1573604060913705
G3 X57.54314720812182 Y23.9746192893401 I0 J1.2258883248730965
G3 X57.9492385786802 Y24.246192893401016 I-0.48984771573604063 J1.16751269035533
G3 X58.22081218274111 Y24.65228426395939 I-0.8959390862944162 J0.8959390862944162
G3 X58.317258883248726 Y25.126903553299492 I-1.1294416243654823 J0.47208121827411165
G3 X58.253807106598984 Y25.512690355329948 I-1.2106598984771573 J0
G3 X58.07106598984771 Y25.86040609137056 I-1.1624365482233503 J-0.3908629441624366
G3 X57.799492385786806 Y26.126903553299492 I-1.0050761421319796 J-0.7563451776649746
G3 X57.62944162436548 Y26.22842639593909 I-0.7385786802030457 J-1.0304568527918783
G1 X57.62944162436548 Y26.565989847715734
G3 X57.799492385786806 Y26.66751269035533 I-0.5685279187817259 J1.134517766497462
G3 X58.07106598984771 Y26.934010152284262 I-0.7309644670050762 J1.0228426395939085
G3 X58.253807106598984 Y27.281725888324875 I-0.9796954314720813 J0.7385786802030457
G3 X58.317258883248726 Y27.66751269035533 I-1.1497461928934012 J0.3857868020304569
G3 X58.22081218274111 Y28.139593908629443 I-1.2258883248730965 J0
G3 X57.9492385786802 Y28.545685279187815 I-1.16751269035533 J-0.48984771573604063
G3 X57.54314720812182 Y28.81725888324873 I-0.8959390862944162 J-0.8959390862944162
G3 X57.07106598984772 Y28.913705583756343 I-0.47208121827411165 J-1.1294416243654823
G3 X56.59898477157361 Y28.81725888324873 I0 J-1.215736040609137
G3 X56.19543147208121 Y28.545685279187815 I0.4847715736040609 J-1.1497461928934012
G3 X55.92639593908629 Y28.139593908629443 I0.8959390862944162 J-0.8857868020304569
G3 X55.83248730964467 Y27.66751269035533 I1.1472081218274113 J-0.47461928934010156
G3 X55.89593908629442 Y27.281725888324875 I1.2106598984771573 J0
G3 X56.078680203045685 Y26.934010152284262 I1.1624365482233503 J0.3908629441624366
G3 X56.3502538071066 Y26.66751269035533 I1.0050761421319796 J0.7563451776649746
G3 X56.52030456852792 Y26.565989847715734 I0.7385786802030457 J1.0304568527918783
G1 X56.52030456852792 Y26.22842639593909
G3 X56.3502538071066 Y26.126903553299492 I0.5685279187817259 J-1.134517766497462
G3 X56.078680203045685 Y25.86040609137056 I0.7309644670050762 J-1.0228426395939085
G3 X55.89593908629442 Y25.512690355329948 I0.9796954314720813 J-0.7385786802030457
G3 X55.83248730964467 Y25.126903553299492 I1.1497461928934012 J-0.3857868020304569
G3 X55.84263959390863 Y24.97969543147208 I1.281725888324873 J0
G3 X55.86548223350253 Y24.83502538071066 I1.248730964467005 J0.1446700507614213
G3 X55.89593908629442 Y24.736040609137056 I1.2055837563451777 J0.28426395939086296
G1 X54.31218274111675 Y23.13705583756345
G1 X50.01015228426396 Y23.13705583756345
G1 X50.01015228426396 Y24.99238578680203
G3 X50.022842639593904 Y25.065989847715734 I-0.5355329949238579 J0.14213197969543148
G3 X50.02791878172589 Y25.13451776649746 I-0.5507614213197969 J0.06852791878172589
G3 X50.0253807106599 Y25.190355329949238 I-0.5558375634517766 J0
G3 X50 Y25.31218274111675 I-0.5532994923857868 J-0.05583756345177665
G3 X49.94670050761421 Y25.421319796954315 I-0.5253807106598986 J-0.17766497461928935
G3 X49.931472081218274 Y25.446700507614214 I-0.47715736040609136 J-0.28426395939086296
G1 X49.923857868020306 Y25.45939086294416
G1 X49.91370558375635 Y25.472081218274113
G3 X49.898477157360404 Y25.497461928934012 I-0.4619289340101523 J-0.3071065989847716
G3 X49.824873096446694 Y25.576142131979694 I-0.44416243654822335 J-0.33248730964467005
G3 X49.766497461928935 Y25.621827411167516 I-0.37055837563451777 J-0.4111675126903553
G1 X48.09137055837564 Y27.274111675126903
G3 X48.11928934010152 Y27.36802030456853 I-1.116751269035533 J0.3934010152284264
G3 X48.14720812182741 Y27.515228426395943 I-1.1218274111675126 J0.29441624365482233
G3 X48.15736040609137 Y27.66751269035533 I-1.1852791878172588 J0.15228426395939088
G3 X48.06345177664974 Y28.139593908629443 I-1.2411167512690355 J0
G3 X47.79441624365482 Y28.545685279187815 I-1.1649746192893402 J-0.47969543147208127
G3 X47.390862944162436 Y28.81725888324873 I-0.8883248730964467 J-0.8781725888324874
G3 X46.91878172588832 Y28.913705583756343 I-0.47208121827411165 J-1.1218274111675126
G3 X46.44670050761421 Y28.81725888324873 I0 J-1.2258883248730965
G3 X46.04060913705584 Y28.545685279187815 I0.48984771573604063 J-1.16751269035533
G3 X45.76903553299492 Y28.139593908629443 I0.8959390862944162 J-0.8959390862944162
G3 X45.67258883248731 Y27.66751269035533 I1.1294416243654823 J-0.47208121827411165
G3 X45.76903553299492 Y27.192893401015226 I1.215736040609137 J0
G3 X46.04060913705584 Y26.791878172588834 I1.1497461928934012 J0.4847715736040609
G3 X46.44670050761421 Y26.522842639593907 I0.8857868020304569 J0.8959390862944162
G3 X46.91878172588832 Y26.428934010152286 I0.47461928934010156 J1.1472081218274113
G3 X47.06345177664975 Y26.436548223350258 I0 J1.1954314720812182
G3 X47.20812182741117 Y26.46446700507614 I-0.14974619289340102 J1.2208121827411167
G3 X47.30203045685279 Y26.49238578680203 I-0.2969543147208122 J1.2131979695431472
G1 X48.90862944162436 Y24.923857868020303
G1 X48.90862944162436 Y22.63197969543147
G1 X48.90862944162436 Y22.609137055837564
G1 X48.90862944162436 Y22.604060913705585
G1 X48.90862944162436 Y22.58375634517766
G1 X48.90862944162436 Y22.578680203045685
G1 X48.90862944162436 Y22.558375634517766
G1 X48.90862944162436 Y22.54568527918782
G3 X48.934010152284266 Y22.378172588832488 I0.5558375634517766 J0
G3 X49.0253807106599 Y22.205583756345177 I0.5279187817258884 J0.16751269035532995
G3 X49.11675126903553 Y22.111675126903553 I0.4390862944162437 J0.3401015228426396
G3 X49.17005076142132 Y22.076142131979694 I0.3451776649746193 J0.434010152284264
G3 X49.32233502538071 Y22.01015228426396 I0.29441624365482233 J0.46954314720812185
G3 X49.3502538071066 Y22.002538071065988 I0.14213197969543148 J0.5355329949238579
G3 X49.54314720812182 Y21.99746192893401 I0.11421319796954314 J0.5431472081218274
G3 X49.662436548223354 Y22.027918781725887 I-0.07868020304568528 J0.5482233502538071
G0 Z2
G0 X47.65228426395939 Y31.751522842639595
G1 Z-0.2 F150
G1 X51.70812182741117 Y29.705583756345177 F150
G3 X51.80456852791878 Y29.659898477157363 I0.2918781725888325 J0.47208121827411165
G3 X51.9263959390863 Y29.62944162436548 I0.1954314720812183 J0.5203045685279188
G3 X52.05329949238578 Y29.626903553299492 I0.07360406091370558 J0.5507614213197969
G3 X52.13197969543147 Y29.639593908629443 I-0.053299492385786795 J0.5532994923857868
G1 X54.38578680203045 Y29.639593908629443
G3 X54.53045685279187 Y29.619289340101524 I0.1446700507614213 J0.5355329949238579
G3 X54.70558375634518 Y29.64720812182741 I0 J0.5558375634517766
G3 X54.82233502538071 Y29.69035532994924 I-0.12944162436548223 J0.5406091370558376
G3 X54.944162436548226 Y29.77157360406091 I-0.24619289340101522 J0.49746192893401014
G3 X55.04060913705584 Y29.883248730964468 I-0.3680203045685279 J0.416243654822335
G3 X55.07868020304569 Y29.951776649746193 I-0.4619289340101523 J0.30456852791878175
G1 X56.67766497461929 Y31.568527918781726
G3 X56.77157360406091 Y31.538071065989847 I0.4035532994923858 J1.1472081218274113
G3 X56.921319796954315 Y31.51015228426396 I0.29949238578680204 J1.1395939086294418
G3 X57.07106598984772 Y31.5 I0.14974619289340102 J1.1573604060913705
G3 X57.54314720812182 Y31.593908629441625 I0 J1.2258883248730965
G3 X57.9492385786802 Y31.868020304568528 I-0.48984771573604063 J1.16751269035533
G3 X58.22081218274111 Y32.2741116751269 I-0.8959390862944162 J0.8959390862944162
G3 X58.317258883248726 Y32.746192893401016 I-1.1294416243654823 J0.47208121827411165
G3 X58.253807106598984 Y33.131979695431475 I-1.2106598984771573 J0
G3 X58.07106598984771 Y33.47969543147208 I-1.1624365482233503 J-0.3908629441624366
G3 X57.799492385786806 Y33.746192893401016 I-1.0050761421319796 J-0.7563451776649746
G3 X57.62944162436548 Y33.84771573604061 I-0.7385786802030457 J-1.0304568527918783
G1 X57.62944162436548 Y34.18527918781726
G3 X57.799492385786806 Y34.286802030456855 I-0.5685279187817259 J1.134517766497462
G3 X58.07106598984771 Y34.55329949238579 I-0.7309644670050762 J1.0228426395939085
G3 X58.253807106598984 Y34.901015228426395 I-0.9796954314720813 J0.7385786802030457
G3 X58.317258883248726 Y35.286802030456855 I-1.1497461928934012 J0.3857868020304569
G3 X58.22081218274111 Y35.75888324873097 I-1.2258883248730965 J0
G3 X57.9492385786802 Y36.16497461928934 I-1.16751269035533 J-0.48984771573604063
G3 X57.54314720812182 Y36.43908629441624 I-0.8959390862944162 J-0.8959390862944162
G3 X57.07106598984772 Y36.53299492385787 I-0.47208121827411165 J-1.1294416243654823
G3 X56.59898477157361 Y36.43654822335026 I0 J-1.215736040609137
G3 X56.19543147208121 Y36.16497461928934 I0.4847715736040609 J-1.1497461928934012
G3 X55.92639593908629 Y35.75888324873097 I0.8959390862944162 J-0.8857868020304569
G3 X55.83248730964467 Y35.286802030456855 I1.1472081218274113 J-0.47461928934010156
G3 X55.89593908629442 Y34.901015228426395 I1.2106598984771573 J0
G3 X56.078680203045685 Y34.55329949238579 I1.1624365482233503 J0.3908629441624366
G3 X56.3502538071066 Y34.286802030456855 I1.0050761421319796 J0.7563451776649746
G3 X56.52030456852792 Y34.18527918781726 I0.7385786802030457 J1.0304568527918783
G1 X56.52030456852792 Y33.84771573604061
G3 X56.3502538071066 Y33.746192893401016 I0.5685279187817259 J-1.134517766497462
G3 X56.078680203045685 Y33.47969543147208 I0.7309644670050762 J-1.0228426395939085
G3 X55.89593908629442 Y33.131979695431475 I0.9796954314720813 J-0.7385786802030457
G3 X55.83248730964467 Y32.746192893401016 I1.1497461928934012 J-0.3857868020304569
G3 X55.84263959390863 Y32.59644670050761 I1.131979695431472 J0
G3 X55.87309644670051 Y32.44670050761422 I1.1954314720812182 J0.15736040609137056
G3 X55.90101522842639 Y32.35279187817259 I1.215736040609137 J0.3223350253807106
G1 X54.31218274111675 Y30.748730964467008
G1 X52.10406091370558 Y30.748730964467008
G1 X48.15736040609137 Y32.74111675126904
G1 X48.15736040609137 Y32.756345177664976
G3 X48.06345177664974 Y33.22842639593909 I-1.2233502538071066 J0
G3 X47.79187817258883 Y33.62690355329949 I-1.1294416243654823 J-0.47208121827411165
G3 X47.39340101522843 Y33.890862944162436 I-0.868020304568528 J-0.8781725888324874
G3 X46.91878172588832 Y33.984771573604064 I-0.47208121827411165 J-1.1573604060913705
G3 X46.44670050761421 Y33.890862944162436 I0 J-1.2588832487309645
G3 X46.04314720812183 Y33.62690355329949 I0.47208121827411165 J-1.1598984771573604
G3 X45.76903553299492 Y33.22842639593909 I0.8604060913705585 J-0.8807106598984772
G3 X45.67258883248731 Y32.756345177664976 I1.1116751269035532 J-0.47208121827411165
G3 X45.76903553299492 Y32.28172588832487 I1.2258883248730965 J0
G3 X46.04060913705584 Y31.8756345177665 I1.16751269035533 J0.48984771573604063
G3 X46.44670050761421 Y31.60406091370558 I0.8959390862944162 J0.8959390862944162
G3 X46.91878172588832 Y31.507614213197968 I0.47208121827411165 J1.1294416243654823
G3 X47.16497461928934 Y31.53299492385787 I0 J1.233502538071066
G3 X47.401015228426395 Y31.606598984771573 I-0.2436548223350254 J1.1928934010152283
G3 X47.609137055837564 Y31.720812182741117 I-0.48223350253807107 J1.131979695431472
G3 X47.652284263959395 Y31.751269035532992 I-0.7131979695431472 J1.050761421319797
G0 Z2
G0 X47.65304568527919 Y21.59213197969543
G1 Z-0.2 F150
G1 X50.753807106598984 Y20.04568527918782 F150
G3 X50.84771573604061 Y19.573604060913706 I1.233502538071066 J0
G3 X51.11675126903553 Y19.17258883248731 I1.1472081218274113 J0.47715736040609136
G3 X51.51776649746193 Y18.903553299492387 I0.8781725888324874 J0.8781725888324874
G3 X51.98984771573605 Y18.809644670050762 I0.47208121827411165 J1.1395939086294418
G3 X52.378172588832484 Y18.87055837563452 I0 J1.2233502538071066
G3 X52.7258883248731 Y19.053299492385786 I-0.3934010152284264 J1.182741116751269
G3 X52.99746192893401 Y19.327411167512693 I-0.7538071065989848 J1.015228426395939
G3 X53.101522842639596 Y19.49746192893401 I-1.0076142131979695 J0.7284263959390863
G1 X53.42893401015228 Y19.49746192893401
G3 X53.53299492385787 Y19.327411167512693 I1.1116751269035532 J0.5609137055837563
G3 X53.80456852791879 Y19.053299492385786 I1.0253807106598984 J0.7411167512690355
G3 X54.15228426395939 Y18.87055837563452 I0.7436548223350253 J1.00253807106599
G3 X54.54060913705583 Y18.809644670050762 I0.3857868020304569 J1.1624365482233503
G3 X55.01269035532995 Y18.903553299492387 I0 J1.233502538071066
G3 X55.41370558375634 Y19.17258883248731 I-0.47715736040609136 J1.1472081218274113
G3 X55.68274111675127 Y19.573604060913706 I-0.8781725888324874 J0.8781725888324874
G3 X55.776649746192895 Y20.04568527918782 I-1.1395939086294418 J0.47208121827411165
G3 X55.68274111675127 Y20.52030456852792 I-1.2411167512690355 J0
G3 X55.41624365482234 Y20.923857868020303 I-1.1649746192893402 J-0.47969543147208127
G3 X55.01269035532995 Y21.197969543147206 I-0.8883248730964467 J-0.8781725888324874
G3 X54.54060913705583 Y21.29187817258883 I-0.47208121827411165 J-1.1218274111675126
G3 X54.15228426395939 Y21.230964467005077 I0 J-1.2233502538071066
G3 X53.80456852791879 Y21.048223350253807 I0.3934010152284264 J-1.182741116751269
G3 X53.53299492385787 Y20.774111675126903 I0.7538071065989848 J-1.015228426395939
G3 X53.42893401015228 Y20.60406091370558 I1.0076142131979695 J-0.7284263959390863
G1 X53.101522842639596 Y20.60406091370558
G3 X52.99746192893401 Y20.774111675126903 I-1.1116751269035532 J-0.5609137055837563
G3 X52.7258883248731 Y21.048223350253807 I-1.0253807106598984 J-0.7411167512690355
G3 X52.378172588832484 Y21.230964467005077 I-0.7436548223350253 J-1.00253807106599
G3 X51.98984771573605 Y21.29187817258883 I-0.3857868020304569 J-1.1624365482233503
G3 X51.74111675126903 Y21.26649746192893 I0 J-1.2309644670050761
G3 X51.502538071065985 Y21.192893401015226 I0.24619289340101522 J-1.1928934010152283
G3 X51.29187817258884 Y21.076142131979694 I0.49238578680203043 J-1.131979695431472
G3 X51.246192893401016 Y21.04314720812183 I0.7233502538071066 J-1.0431472081218274
G1 X49.32233502538071 Y22.01015228426396
G1 X49.11675126903553 Y22.111675126903553
G1 X48.15736040609137 Y22.593908629441625
G3 X48.06345177664974 Y23.060913705583754 I-1.2411167512690355 J-0.007614213197969543
G3 X47.79441624365482 Y23.464467005076145 I-1.1649746192893402 J-0.47969543147208127
G3 X47.390862944162436 Y23.738578680203048 I-0.8883248730964467 J-0.8781725888324874
G3 X46.91878172588832 Y23.832487309644673 I-0.47208121827411165 J-1.1218274111675126
G3 X46.44670050761421 Y23.738578680203048 I0 J-1.2258883248730965
G3 X46.04060913705584 Y23.464467005076145 I0.48984771573604063 J-1.16751269035533
G3 X45.76903553299492 Y23.060913705583754 I0.8959390862944162 J-0.8959390862944162
G3 X45.67258883248731 Y22.586294416243653 I1.1294416243654823 J-0.47208121827411165
G3 X45.76903553299492 Y22.114213197969544 I1.215736040609137 J0
G3 X46.04060913705584 Y21.710659898477157 I1.1497461928934012 J0.4847715736040609
G3 X46.44670050761421 Y21.441624365482234 I0.8857868020304569 J0.8959390862944162
G3 X46.91878172588832 Y21.34771573604061 I0.47461928934010156 J1.1472081218274113
G3 X47.16497461928934 Y21.373096446700508 I0 J1.233502538071066
G3 X47.401015228426395 Y21.446700507614214 I-0.2436548223350254 J1.1928934010152283
G3 X47.609137055837564 Y21.560913705583754 I-0.48223350253807107 J1.131979695431472
G3 X47.652284263959395 Y21.591370558375633 I-0.7131979695431472 J1.050761421319797
G0 Z2
G0 X48.01903553299493 Y34.72791878172589
G1 Z-0.2 F150
G1 X50.890862944162436 Y34.72842639593908 F150
G3 X50.941624365482234 Y34.63705583756345 I1.0888324873096447 J0.5634517766497462
G3 X51.1243654822335 Y34.411167512690355 I1.0609137055837563 J0.6675126903553299
G3 X51.352791878172596 Y34.236040609137056 I0.8857868020304569 J0.901015228426396
G3 X51.44162436548223 Y34.18527918781726 I0.6522842639593909 J1.0685279187817258
G1 X51.44162436548223 Y33.84771573604061
G3 X51.27157360406091 Y33.746192893401016 I0.5685279187817259 J-1.134517766497462
G3 X50.997461928934015 Y33.47969543147208 I0.7309644670050762 J-1.0228426395939085
G3 X50.81472081218274 Y33.131979695431475 I0.9796954314720813 J-0.7385786802030457
G3 X50.753807106598984 Y32.746192893401016 I1.1497461928934012 J-0.3857868020304569
G3 X50.84771573604061 Y32.2741116751269 I1.2411167512690355 J0
G3 X51.11421319796954 Y31.868020304568528 I1.1649746192893402 J0.47969543147208127
G3 X51.51776649746193 Y31.596446700507613 I0.8883248730964467 J0.8781725888324874
G3 X51.98984771573605 Y31.5 I0.47208121827411165 J1.1218274111675126
G3 X52.464467005076145 Y31.593908629441625 I0 J1.2258883248730965
G3 X52.870558375634516 Y31.868020304568528 I-0.48984771573604063 J1.16751269035533
G3 X53.142131979695435 Y32.2741116751269 I-0.8959390862944162 J0.8959390862944162
G3 X53.236040609137056 Y32.746192893401016 I-1.1294416243654823 J0.47208121827411165
G3 X53.1751269035533 Y33.131979695431475 I-1.2106598984771573 J0
G3 X52.99238578680203 Y33.47969543147208 I-1.1624365482233503 J-0.3908629441624366
G3 X52.71827411167513 Y33.746192893401016 I-1.0050761421319796 J-0.7563451776649746
G3 X52.54822335025381 Y33.84771573604061 I-0.7385786802030457 J-1.0304568527918783
G1 X52.54822335025381 Y34.18527918781726
G3 X52.71827411167513 Y34.286802030456855 I-0.5685279187817259 J1.134517766497462
G3 X52.99238578680203 Y34.55329949238579 I-0.7309644670050762 J1.0228426395939085
G3 X53.1751269035533 Y34.901015228426395 I-0.9796954314720813 J0.7385786802030457
G3 X53.236040609137056 Y35.286802030456855 I-1.1497461928934012 J0.3857868020304569
G3 X53.142131979695435 Y35.75888324873097 I-1.2258883248730965 J0
G3 X52.870558375634516 Y36.16497461928934 I-1.16751269035533 J-0.48984771573604063
G3 X52.464467005076145 Y36.43908629441624 I-0.8959390862944162 J-0.8959390862944162
G3 X51.98984771573605 Y36.53299492385787 I-0.47208121827411165 J-1.1294416243654823
G3 X51.60406091370558 Y36.46954314720812 I0 J-1.2055837563451777
G3 X51.253807106598984 Y36.28426395939086 I0.3934010152284264 J-1.1548223350253808
G3 X50.98984771573604 Y36.00761421319797 I0.7614213197969544 J-0.9974619289340102
G3 X50.88832487309645 Y35.837563451776646 I1.0431472081218274 J-0.7335025380710659
G1 X48.03045685279188 Y35.837563451776646
G3 X47.92893401015228 Y36.00761421319797 I-1.1218274111675126 J-0.5532994923857868
G3 X47.65989847715736 Y36.28426395939086 I-1.0304568527918783 J-0.7335025380710659
G3 X47.307106598984774 Y36.46954314720812 I-0.7461928934010152 J-0.9923857868020304
G3 X46.91878172588832 Y36.53299492385787 I-0.3883248730964467 J-1.1548223350253808
G3 X46.44670050761421 Y36.43908629441624 I0 J-1.2258883248730965
G3 X46.04060913705584 Y36.16497461928934 I0.48984771573604063 J-1.16751269035533
G3 X45.76903553299492 Y35.75888324873097 I0.8959390862944162 J-0.8959390862944162
G3 X45.67258883248731 Y35.286802030456855 I1.1294416243654823 J-0.47208121827411165
G3 X45.76903553299492 Y34.81472081218274 I1.215736040609137 J0
G3 X46.04060913705584 Y34.411167512690355 I1.1497461928934012 J0.4847715736040609
G3 X46.44670050761421 Y34.142131979695435 I0.8857868020304569 J0.8959390862944162
G3 X46.91878172588832 Y34.04822335025381 I0.47461928934010156 J1.1472081218274113
G3 X47.30203045685279 Y34.111675126903556 I0 J1.2131979695431472
G3 X47.6497461928934 Y34.29187817258884 I-0.3883248730964467 J1.1700507614213198
G3 X47.91624365482234 Y34.56091370558376 I-0.751269035532995 J1.012690355329949
G3 X48.02030456852792 Y34.72842639593908 I-1.0203045685279188 J0.7436548223350253
G0 Z2
G0 X48.02944162436548 Y39.816751269035535
G1 Z-0.2 F150
G1 X50.88832487309645 Y39.81725888324873 F150
G3 X50.99238578680203 Y39.64720812182741 I1.134517766497462 J0.5685279187817259
G3 X51.25888324873096 Y39.3756345177665 I1.0228426395939085 J0.7309644670050762
G3 X51.60406091370558 Y39.192893401015226 I0.7385786802030457 J0.9796954314720813
G3 X51.98984771573605 Y39.129441624365484 I0.3857868020304569 J1.1497461928934012
G3 X52.378172588832484 Y39.19035532994924 I0 J1.2233502538071066
G3 X52.7258883248731 Y39.37309644670051 I-0.3934010152284264 J1.182741116751269
G3 X52.99746192893401 Y39.64720812182741 I-0.7538071065989848 J1.015228426395939
G3 X53.101522842639596 Y39.81725888324873 I-1.0076142131979695 J0.7284263959390863
G1 X53.42893401015228 Y39.81725888324873
G3 X53.53299492385787 Y39.64720812182741 I1.1116751269035532 J0.5609137055837563
G3 X53.80456852791879 Y39.37309644670051 I1.0253807106598984 J0.7411167512690355
G3 X54.15228426395939 Y39.19035532994924 I0.7436548223350253 J1.00253807106599
G3 X54.54060913705583 Y39.129441624365484 I0.3857868020304569 J1.1624365482233503
G3 X55.01269035532995 Y39.223350253807105 I0 J1.233502538071066
G3 X55.41370558375634 Y39.49238578680203 I-0.47715736040609136 J1.1472081218274113
G3 X55.68274111675127 Y39.89340101522843 I-0.8781725888324874 J0.8781725888324874
G3 X55.776649746192895 Y40.36548223350253 I-1.1395939086294418 J0.47208121827411165
G3 X55.68274111675127 Y40.84010152284264 I-1.2411167512690355 J0
G3 X55.41624365482234 Y41.24365482233503 I-1.1649746192893402 J-0.47969543147208127
G3 X55.01269035532995 Y41.51776649746193 I-0.8883248730964467 J-0.8781725888324874
G3 X54.54060913705583 Y41.61421319796954 I-0.47208121827411165 J-1.1218274111675126
G3 X54.149746192893396 Y41.55076142131979 I0 J-1.2208121827411167
G3 X53.799492385786806 Y41.36548223350254 I0.3959390862944162 J-1.1776649746192893
G3 X53.53045685279188 Y41.08629441624365 I0.7588832487309645 J-1.0101522842639594
G3 X53.42893401015228 Y40.91624365482233 I1.0203045685279188 J-0.7258883248730964
G1 X53.101522842639596 Y40.91624365482233
G3 X53 Y41.08629441624365 I-1.1218274111675126 J-0.5532994923857868
G3 X52.73096446700507 Y41.36548223350254 I-1.0304568527918783 J-0.7335025380710659
G3 X52.378172588832484 Y41.55076142131979 I-0.7461928934010152 J-0.9923857868020304
G3 X51.98984771573605 Y41.61421319796954 I-0.3883248730964467 J-1.1548223350253808
G3 X51.60406091370558 Y41.54822335025381 I0 J-1.2055837563451777
G3 X51.253807106598984 Y41.36294416243655 I0.3934010152284264 J-1.1548223350253808
G3 X50.98984771573604 Y41.088832487309645 I0.7614213197969544 J-0.9974619289340102
G3 X50.88832487309645 Y40.91624365482233 I1.0431472081218274 J-0.7335025380710659
G1 X48.03045685279188 Y40.91624365482233
G3 X47.92893401015228 Y41.08629441624365 I-1.1218274111675126 J-0.5532994923857868
G3 X47.65989847715736 Y41.36548223350254 I-1.0304568527918783 J-0.7335025380710659
G3 X47.307106598984774 Y41.55076142131979 I-0.7461928934010152 J-0.9923857868020304
G3 X46.91878172588832 Y41.61421319796954 I-0.3883248730964467 J-1.1548223350253808
G3 X46.44670050761421 Y41.51776649746193 I0 J-1.2258883248730965
G3 X46.04060913705584 Y41.246192893401016 I0.48984771573604063 J-1.16751269035533
G3 X45.76903553299492 Y40.84010152284264 I0.8959390862944162 J-0.8959390862944162
G3 X45.67258883248731 Y40.36548223350253 I1.1294416243654823 J-0.47208121827411165
G3 X45.76903553299492 Y39.89340101522843 I1.215736040609137 J0
G3 X46.04060913705584 Y39.48984771573604 I1.1497461928934012 J0.4847715736040609
G3 X46.44670050761421 Y39.223350253807105 I0.8857868020304569 J0.8959390862944162
G3 X46.91878172588832 Y39.129441624365484 I0.47461928934010156 J1.1472081218274113
G3 X47.307106598984774 Y39.19035532994924 I0 J1.2233502538071066
G3 X47.65482233502538 Y39.37309644670051 I-0.3934010152284264 J1.182741116751269
G3 X47.92639593908629 Y39.64720812182741 I-0.7538071065989848 J1.015228426395939
G3 X48.03045685279188 Y39.81725888324873 I-1.0076142131979695 J0.7284263959390863
G0 Z2
G0 X51.244923857868024 Y28.653807106598986
G1 Z-0.2 F150
G1 X49.55329949238578 Y29.494923857868017 F150
G3 X49.51269035532995 Y29.51269035532995 I-0.24619289340101522 J-0.49746192893401014
G1 X49.49492385786802 Y29.52030456852792
G1 X49.45685279187817 Y29.54060913705584
G1 X49.43401015228426 Y29.548223350253807
G1 X49.41370558375635 Y29.555837563451774
G1 X48.15736040609137 Y30.205583756345177
G1 X48.15736040609137 Y30.205583756345177
G3 X48.06345177664974 Y30.68020304568528 I-1.233502538071066 J0
G3 X47.79441624365482 Y31.081218274111677 I-1.1472081218274113 J-0.47715736040609136
G3 X47.39340101522843 Y31.3502538071066 I-0.8781725888324874 J-0.8781725888324874
G3 X46.91878172588832 Y31.444162436548222 I-0.47208121827411165 J-1.1395939086294418
G3 X46.44670050761421 Y31.3502538071066 I0 J-1.2411167512690355
G3 X46.04060913705584 Y31.081218274111677 I0.47969543147208127 J-1.1649746192893402
G3 X45.76903553299492 Y30.68020304568528 I0.8781725888324874 J-0.8883248730964467
G3 X45.67258883248731 Y30.205583756345177 I1.1218274111675126 J-0.47208121827411165
G3 X45.76903553299492 Y29.733502538071065 I1.2258883248730965 J0
G3 X46.04060913705584 Y29.327411167512693 I1.16751269035533 J0.48984771573604063
G3 X46.44670050761421 Y29.055837563451774 I0.8959390862944162 J0.8959390862944162
G3 X46.91878172588832 Y28.95939086294416 I0.47208121827411165 J1.1294416243654823
G3 X47.16497461928934 Y28.98730964467005 I0 J1.1700507614213198
G3 X47.40355329949239 Y29.063451776649746 I-0.25380710659898476 J1.1852791878172588
G3 X47.609137055837564 Y29.180203045685282 I-0.5126903553299492 J1.1497461928934012
G3 X47.652284263959395 Y29.210659898477157 I-0.7639593908629441 J1.1015228426395938
G1 X48.98223350253807 Y28.54314720812183
G3 X49.05076142131979 Y28.50507614213198 I0.2969543147208122 J0.46700507614213194
G3 X49.11167512690355 Y28.482233502538072 I0.22842639593908629 J0.5050761421319797
G1 X50.753807106598984 Y27.66497461928934
G3 X50.81472081218274 Y27.281725888324875 I1.2106598984771573 J0
G3 X50.997461928934015 Y26.934010152284262 I1.1624365482233503 J0.3908629441624366
G3 X51.27157360406091 Y26.66751269035533 I1.0050761421319796 J0.7563451776649746
G3 X51.44162436548223 Y26.565989847715734 I0.7385786802030457 J1.0304568527918783
G1 X51.44162436548223 Y26.22842639593909
G3 X51.27157360406091 Y26.126903553299492 I0.5685279187817259 J-1.134517766497462
G3 X50.997461928934015 Y25.86040609137056 I0.7309644670050762 J-1.0228426395939085
G3 X50.81472081218274 Y25.512690355329948 I0.9796954314720813 J-0.7385786802030457
G3 X50.753807106598984 Y25.126903553299492 I1.1497461928934012 J-0.3857868020304569
G3 X50.84771573604061 Y24.65228426395939 I1.2411167512690355 J0
G3 X51.11421319796954 Y24.248730964467008 I1.1649746192893402 J0.47969543147208127
G3 X51.51776649746193 Y23.9746192893401 I0.8883248730964467 J0.8781725888324874
G3 X51.98984771573605 Y23.88071065989848 I0.47208121827411165 J1.1218274111675126
G3 X52.464467005076145 Y23.9746192893401 I0 J1.2258883248730965
G3 X52.870558375634516 Y24.246192893401016 I-0.48984771573604063 J1.16751269035533
G3 X53.142131979695435 Y24.65228426395939 I-0.8959390862944162 J0.8959390862944162
G3 X53.236040609137056 Y25.126903553299492 I-1.1294416243654823 J0.47208121827411165
G3 X53.1751269035533 Y25.512690355329948 I-1.2106598984771573 J0
G3 X52.99238578680203 Y25.86040609137056 I-1.1624365482233503 J-0.3908629441624366
G3 X52.71827411167513 Y26.126903553299492 I-1.0050761421319796 J-0.7563451776649746
G3 X52.54822335025381 Y26.22842639593909 I-0.7385786802030457 J-1.0304568527918783
G1 X52.54822335025381 Y26.565989847715734
G3 X52.71827411167513 Y26.66751269035533 I-0.5685279187817259 J1.134517766497462
G3 X52.99238578680203 Y26.934010152284262 I-0.7309644670050762 J1.0228426395939085
G3 X53.1751269035533 Y27.281725888324875 I-0.9796954314720813 J0.7385786802030457
G3 X53.236040609137056 Y27.66751269035533 I-1.1497461928934012 J0.3857868020304569
G3 X53.142131979695435 Y28.139593908629443 I-1.2258883248730965 J0
G3 X52.870558375634516 Y28.545685279187815 I-1.16751269035533 J-0.48984771573604063
G3 X52.464467005076145 Y28.81725888324873 I-0.8959390862944162 J-0.8959390862944162
G3 X51.98984771573605 Y28.913705583756343 I-0.47208121827411165 J-1.1294416243654823
G3 X51.73857868020305 Y28.88578680203046 I0 J-1.1954314720812182
G3 X51.497461928934015 Y28.807106598984774 I0.2512690355329949 J-1.1700507614213198
G3 X51.29187817258884 Y28.68781725888325 I0.5076142131979695 J-1.1243654822335025
G3 X51.24365482233503 Y28.654822335025383 I0.766497461928934 J-1.0761421319796955
G0 Z2
M5
M30
